!!!!SEGMENT: pl-wtm--r-71-n--008_noskowski-zygmunt--powrot-suita-krakowiakow-allegro-non-troppo.krn
!!!cenid: 18xx:2118
!!!COM: Noskowski, Zygmunt
!!!COM-rism: pe106604
!!!CDT: 1846/05/02-1909/07/23
!!!CNT: Polish
!!!OTL: Powrót – Suita krakowiaków – Allegro non troppo
!!!PDT: 1894
!!!AGN: Secular
!!!SMS-siglum: PL-Wtm
!!!SMS-shelfmark: R 71/N
!!!NIFC-rismID: 1001096000
!!!URL-scan: http://repozytorium.nifc.pl/skany/pl-wtm-nut--r71n
!!!ONB-nifc: UWAGA: Numeracja krakowiaków zgodna z kolejnością źródłową (I-VIII)
!!!SMS-variant:
!!!SMS-altvar:
**kern	**kern	**dynam	**kern	**kern	**dynam	**kern	**text	**dynam	**kern	**text	**dynam	**kern	**text	**dynam	**kern	**text	**dynam	**kern	**text	**dynam
*part7	*part7	*part7	*part6	*part6	*part6	*part5	*part5	*part5	*part4	*part4	*part4	*part3	*part3	*part3	*part2	*part2	*part2	*part1	*part1	*part1
*staff9	*staff8	*	*staff7	*staff6	*	*staff5	*staff5	*	*staff4	*staff4	*	*staff3	*staff3	*	*staff2	*staff2	*	*staff1	*staff1	*
*group	*group	*group	*group	*group	*group	*group1	*group1	*group1	*group1	*group1	*group1	*group1	*group1	*group1	*group1	*group1	*group1	*group	*group	*group
*I"[Pianoforte 2do]	*I"[Pianoforte 2do]	*	*I"[Pianoforte 1mo]	*I"[Pianoforte 1mo]	*	*I"Ba	*	*	*I"Ten	*	*	*I"Alt	*	*	*I"Sop	*	*	*I"Solo Tenor	*	*
*clefF4	*clefF4	*	*clefG2	*clefG2	*	*clefF4	*	*	*clefG2	*	*	*clefG2	*	*	*clefG2	*	*	*clefG2	*	*
*k[f#c#g#d#]	*k[f#c#g#d#]	*	*k[f#c#g#d#]	*k[f#c#g#d#]	*	*k[f#c#g#d#]	*	*	*k[f#c#g#d#]	*	*	*k[f#c#g#d#]	*	*	*k[f#c#g#d#]	*	*	*k[f#c#g#d#]	*	*
*M2/4	*M2/4	*	*M2/4	*M2/4	*	*M2/4	*	*	*M2/4	*	*	*M2/4	*	*	*M2/4	*	*	*M2/4	*	*
=1	=1	=1	=1	=1	=1	=1	=1	=1	=1	=1	=1	=1	=1	=1	=1	=1	=1	=1	=1	=1
!	!	!	!	!	!	!	!	!	!	!	!	!	!	!	!	!	!	!LO:TX:a:i:t=Allegro non troppo.	!	!
!	!	!LO:DY:rj	!	!	!LO:DY:rj	!	!	!	!	!	!	!	!	!	!	!	!	!LO:TX:a:t=VIII	!	!
!	!LO:TX:a:i:t=Allegro non troppo.	!	!	!LO:TX:a:i:t=Allegro non troppo.	!	!	!	!	!	!	!	!	!	!	!	!	!	!LO:TX:t=P:problem:w źródle w taktach 1-61 brak pięciolinii dla partii "Solo Tenor"	!	!
8EEL 8EEE^^>/	8G#L 8BB^^>\	p	(<16d#^^>/LL	(>16dd#^^>\LL	p	2r	.	.	2r	.	.	2r	.	.	2r	.	.	2ryy	.	.
.	.	.	16e/J	16ee\J	.	.	.	.	.	.	.	.	.	.	.	.	.	.	.	.
!LO:TX:a:i:t=molto crescendo	!	!	!LO:TX:a:i:t=molto crescendo	!	!	!	!	!	!	!	!	!	!	!	!	!	!	!	!	!
8EE 8EEE'/	8G# 8BB'\	.	8c#/J)	8cc#\J)	<	.	.	.	.	.	.	.	.	.	.	.	.	.	.	.
8EE 8EEE'/	8G# 8BB'\	<	8c#'/L	8cc#'\L	.	.	.	.	.	.	.	.	.	.	.	.	.	.	.	.
8EEJ 8EEE'/	8G#J 8BB'\	.	8c#'/J	8cc#'\J	.	.	.	.	.	.	.	.	.	.	.	.	.	.	.	.
=2	=2	=2	=2	=2	=2	=2	=2	=2	=2	=2	=2	=2	=2	=2	=2	=2	=2	=2	=2	=2
*	*tremolo	*	*	*	*	*	*	*	*	*	*	*	*	*	*	*	*	*	*	*
!	!LO:TX:a:t=....	!	!	!	!	!	!	!	!	!	!	!	!	!	!	!	!	!	!	!
8EEL 8EEE'/	8G#L 8BB'\	.	8B'/L	8b'\L	.	2r	.	.	2r	.	.	2r	.	.	2r	.	.	2ryy	.	.
8EE 8EEE'/	8G# 8BB'\	.	16c#/L	(>16cc#\L	.	.	.	.	.	.	.	.	.	.	.	.	.	.	.	.
.	.	.	(>16d#/JJ	16dd#\JJ	.	.	.	.	.	.	.	.	.	.	.	.	.	.	.	.
8EE 8EEE'/	8G# 8BB'\	.	8e/L)	8ee\L)	.	.	.	.	.	.	.	.	.	.	.	.	.	.	.	.
8BBB'/J	8G#J 8BB'\	.	8e/J	8ee'\J	.	.	.	.	.	.	.	.	.	.	.	.	.	.	.	.
*	*Xtremolo	*	*	*	*	*	*	*	*	*	*	*	*	*	*	*	*	*	*	*
=3	=3	=3	=3	=3	=3	=3	=3	=3	=3	=3	=3	=3	=3	=3	=3	=3	=3	=3	=3	=3
8EEL 8EEE^</	8G#L 8BB^^>\	.	(<16d#^^>/LL	(>16dd#^^>\LL	.	2r	.	.	2r	.	.	2r	.	.	2r	.	.	2ryy	.	.
.	.	.	16e/J	16ee\J	.	.	.	.	.	.	.	.	.	.	.	.	.	.	.	.
8EE 8EEE'/	8G# 8BB'\	.	8c#/J)	8cc#\J)	.	.	.	.	.	.	.	.	.	.	.	.	.	.	.	.
8EE 8EEE'/	8G# 8BB'\	.	8c#'/L	8cc#'\L	.	.	.	.	.	.	.	.	.	.	.	.	.	.	.	.
8EEJ 8EEE'/	8G#J 8BB'\	.	8c#'/J	8cc#'\J	.	.	.	.	.	.	.	.	.	.	.	.	.	.	.	.
=4	=4	=4	=4	=4	=4	=4	=4	=4	=4	=4	=4	=4	=4	=4	=4	=4	=4	=4	=4	=4
*tremolo	*tremolo	*	*	*	*	*	*	*	*	*	*	*	*	*	*	*	*	*	*	*
!LO:TX:b:t=....	!LO:TX:a:t=....	!	!	!	!	!	!	!	!	!	!	!	!	!	!	!	!	!	!	!
8EEL 8EEE'/	8G#L 8BB'\	.	8B'/L	8b'\L	.	2r	.	.	2r	.	.	4r	.	.	2r	.	.	2ryy	.	.
8EE 8EEE'/	8G# 8BB'\	.	(<16c#/L	(>16cc#\L	.	.	.	.	.	.	.	.	.	.	.	.	.	.	.	.
.	.	.	16d#/JJ	16dd#\JJ	.	.	.	.	.	.	.	.	.	.	.	.	.	.	.	.
8EE 8EEE'/	8G# 8BB'\	.	8e/L)	8ee\L)	.	.	.	.	.	.	.	8r	.	.	.	.	.	.	.	.
!	!	!	!	!	!	!	!	!	!	!	!	!	!	!LO:DY:a:rj	!	!	!	!	!	!
8EEJ 8EEE'/	8G#J 8BB'\	[[	8e'/J	8ee'\J	[ f	.	.	.	.	.	.	8e/	Wy-	f	.	.	.	.	.	.
*Xtremolo	*Xtremolo	*	*	*	*	*	*	*	*	*	*	*	*	*	*	*	*	*	*	*
=5	=5	=5	=5	=5	=5	=5	=5	=5	=5	=5	=5	=5	=5	=5	=5	=5	=5	=5	=5	=5
4BB 4EE^^>/	4A 4F#^^>\	f	8.d#^>/L	8.dd#^>\L	.	2r	.	.	2r	.	.	8.d#/	-pa-	.	2r	.	.	2ryy	.	.
.	.	.	16e'/Jk	16ee'\Jk	.	.	.	.	.	.	.	16e/	-dło	.	.	.	.	.	.	.
8BBL 8EE'/	8G#L 8E'\	.	8c#'/L	8cc#'\L	.	.	.	.	.	.	.	8c#/	im	.	.	.	.	.	.	.
8BBJ 8EE'/	8AJ 8F#'\	.	8d#'/J	8dd#'\J	.	.	.	.	.	.	.	8d#/	we-	.	.	.	.	.	.	.
=6	=6	=6	=6	=6	=6	=6	=6	=6	=6	=6	=6	=6	=6	=6	=6	=6	=6	=6	=6	=6
8BBL 8EE'/	8AL 8D#'\	.	8B'/	8b'\	.	2r	.	.	2r	.	.	8B/	-se-	.	2r	.	.	2ryy	.	.
8BB 8EE'/	8A 8D#'\	.	4b^^\	4bb^^\	.	.	.	.	.	.	.	4b^>\	-le,	.	.	.	.	.	.	.
8BB 8EE'/	8A 8D#'\	.	.	.	.	.	.	.	.	.	.	.	.	.	.	.	.	.	.	.
8BBJ 8EE'/	8d#J 8F#'\	.	8a'/	8aa'\	.	.	.	.	.	.	.	8a/	Nim	.	.	.	.	.	.	.
!!LO:PB:g=original
=7	=7	=7	=7	=7	=7	=7	=7	=7	=7	=7	=7	=7	=7	=7	=7	=7	=7	=7	=7	=7
8BBL 8EE'/	8eL 8G#'\	.	8.g#/L	8.gg#\L	.	2r	.	.	2r	.	.	8.g#/	jesz-	.	2r	.	.	2ryy	.	.
8BB 8EE'/	8e 8G#'\	.	.	.	.	.	.	.	.	.	.	.	.	.	.	.	.	.	.	.
.	.	.	16a'/Jk	16aa'\Jk	.	.	.	.	.	.	.	16a/	-cze	.	.	.	.	.	.	.
8BB 8EE'/	8d# 8A'\	.	8f#'/L	8ff#'\L	.	.	.	.	.	.	.	8f#/	mi-	.	.	.	.	.	.	.
8BBJ 8EE'/	8d#J 8A'\	.	8g#'/J	8gg#'\J	.	.	.	.	.	.	.	8g#/	-nął	.	.	.	.	.	.	.
=8	=8	=8	=8	=8	=8	=8	=8	=8	=8	=8	=8	=8	=8	=8	=8	=8	=8	=8	=8	=8
8BBL 8EE'/	8BL 8G#'\	.	4e^^>/	4ee^^>\	.	2r	.	.	2r	.	.	4e/	rok.	.	4r	.	.	2ryy	.	.
8BB 8EE'/	8B 8G#'\	.	.	.	.	.	.	.	.	.	.	.	.	.	.	.	.	.	.	.
!	!	!	!	!	!	!	!	!	!	!	!	!	!	!	!	!	!LO:DY:a	!	!	!
8EE'/	8G# 8E'\	.	8g#'/L	8r	.	.	.	.	.	.	.	4g#/	Wy-	.	8r	.	f	.	.	.
8EE'/J	8G#J 8E'\	.	8b^^>/J	8bb^^>\	.	.	.	.	.	.	.	.	.	.	8b\	Wy-	.	.	.	.
=9	=9	=9	=9	=9	=9	=9	=9	=9	=9	=9	=9	=9	=9	=9	=9	=9	=9	=9	=9	=9
*	*^	*	*	*	*	*	*	*	*	*	*	*	*	*	*	*	*	*	*	*
2FF#/	4c#^>/	8r	.	8.a#X^^>/L	8.aa#X^^>\L	.	2r	.	.	2r	.	.	4c#/	-pa-	.	8.a#X/	-pa-	.	2ryy	.	.
.	.	8A#X 8E\	.	.	.	.	.	.	.	.	.	.	.	.	.	.	.	.	.	.	.
.	.	.	.	16b'/Jk	16bb'\Jk	.	.	.	.	.	.	.	.	.	.	16b/	-dło	.	.	.	.
.	4e^>/	8r	.	8g#'/L	8gg#'\L	.	.	.	.	.	.	.	4e/	-dło	.	8g#/	im	.	.	.	.
.	.	8c# 8A# 8E\	.	8a#'/J	8aa#'\J	.	.	.	.	.	.	.	.	.	.	8a#/	we-	.	.	.	.
=10	=10	=10	=10	=10	=10	=10	=10	=10	=10	=10	=10	=10	=10	=10	=10	=10	=10	=10	=10	=10	=10
2FF# 2FFF#/	4d#^>/	8r	.	8f#'/	8ff#'\	.	2r	.	.	2r	.	.	4d#/	im	.	8f#/	-se-	.	2ryy	.	.
.	.	8B 8F# 8D#\	.	4ff#^>\	4fff#^>\	.	.	.	.	.	.	.	.	.	.	4ff#^>\	-le,	.	.	.	.
.	4c#^>/	8r	.	.	.	.	.	.	.	.	.	.	4c#/	we-	.	.	.	.	.	.	.
.	.	8A#X 8F#\	.	8ee'\	8eee'\	.	.	.	.	.	.	.	.	.	.	8ee\	Nim	.	.	.	.
=11	=11	=11	=11	=11	=11	=11	=11	=11	=11	=11	=11	=11	=11	=11	=11	=11	=11	=11	=11	=11	=11
2BB 2BBB/	4B^>/	8r	.	8.dd#^>\L	8.ddd#^>\L	.	2r	.	.	2r	.	.	(<4B/	-se-	.	8.dd#\	jesz-	.	2ryy	.	.
.	.	8F# 8D#\	.	.	.	.	.	.	.	.	.	.	.	.	.	.	.	.	.	.	.
.	.	.	.	16ee'\Jk	16eee'\Jk	.	.	.	.	.	.	.	.	.	.	16ee\	-cze	.	.	.	.
.	4f#^>/	8r	.	8cc#'\L	8ccc#'\L	.	.	.	.	.	.	.	4f#/)	.	.	8cc#\	mi-	.	.	.	.
.	.	8A#X 8E\	.	8dd#'\J	8ddd#'\J	.	.	.	.	.	.	.	.	.	.	8dd#\	-nął	.	.	.	.
!!LO:LB:g=original
=12	=12	=12	=12	=12	=12	=12	=12	=12	=12	=12	=12	=12	=12	=12	=12	=12	=12	=12	=12	=12	=12
4BB 4BBB/	4d#^>/	8r	.	4b/	4bb\	.	4r	.	.	2r	.	.	4d#/	-le	.	4b\	rok.	.	2ryy	.	.
.	.	8B 8F#\	.	.	.	.	.	.	.	.	.	.	.	.	.	.	.	.	.	.	.
8GGnL 8GGGn/	8dnL 8B 8Gn\	4ryy	.	8r	4bb 4b\	.	8r	.	.	.	.	.	(<8dn/L	Nim	.	4b\	Wy-	.	.	.	.
!	!	!	!	!	!	!	!	!	!LO:DY:b:rj	!	!	!	!	!	!	!	!	!	!	!	!
8GG^^>/J	8G^^>\J	.	.	8gn/	.	.	8Gn\	Wy-	f	.	.	.	8gn/J)	.	.	.	.	.	.	.	.
*	*v	*v	*	*	*	*	*	*	*	*	*	*	*	*	*	*	*	*	*	*	*
=13	=13	=13	=13	=13	=13	=13	=13	=13	=13	=13	=13	=13	=13	=13	=13	=13	=13	=13	=13	=13
8.FF#^</L	8.F#^>\L	.	4a/	4.dddn 4.ddn\	.	8.F#\	-pa-	.	2r	.	.	4a/	jesz-	.	4.ddn\	-pa-	.	2ryy	.	.
16GGn'/Jk	16Gn'\Jk	.	.	.	.	16Gn\	-dło	.	.	.	.	.	.	.	.	.	.	.	.	.
8EE'/L	8E'\L	.	(<8gn/L	.	.	8E\	im	.	.	.	.	(<8gn/L	-cze	.	.	.	.	.	.	.
8FF#'/J	8F#'\J	.	8a/J)	8cccn 8ccn\	.	8F#\	we-	.	.	.	.	8a/J)	.	.	8ccn\	-dło	.	.	.	.
=14	=14	=14	=14	=14	=14	=14	=14	=14	=14	=14	=14	=14	=14	=14	=14	=14	=14	=14	=14	=14
8DDn'/	8Dn'\	.	4gn/	4bb 4b\	.	8Dn\	-se-	.	2r	.	.	4gn/	mi-	.	4b\	im	.	2ryy	.	.
4Dn^^>\	4dn^^>\	.	.	.	.	4dn^>\	-le	.	.	.	.	.	.	.	.	.	.	.	.	.
.	.	.	(<8e/L	(>8cccnL 8ccn\	.	.	.	.	.	.	.	(<8e/L	-nął	.	(>8ccn\L	we-	.	.	.	.
8Cn'>/	8cn'\	.	8f#/J)	8aaJ 8a\)	.	8cn\	Nim	.	.	.	.	8f#/J)	.	.	8a\J)	.	.	.	.	.
=15	=15	=15	=15	=15	=15	=15	=15	=15	=15	=15	=15	=15	=15	=15	=15	=15	=15	=15	=15	=15
8.BB^>/L	8.dnL 8.B^>\	.	4gn/	4ggn 4ddn\	.	8.B\	jesz-	.	2r	.	.	(<4dn/	rok.	.	(>4gn/	-se-	.	2ryy	.	.
16Cn'/Jk	16cn'\Jk	.	.	.	.	16cn\	-cze	.	.	.	.	.	.	.	.	.	.	.	.	.
8AA'/L	8A'\L	.	4ddn 4f#/	4dddny 4ff#\	.	8A\	mi-	.	.	.	.	4f#/	.	.	4ddn\)	.	.	.	.	.
8BB'/J	8B'\J	.	.	.	.	8B\	-nął	.	.	.	.	.	.	.	.	.	.	.	.	.
=16	=16	=16	=16	=16	=16	=16	=16	=16	=16	=16	=16	=16	=16	=16	=16	=16	=16	=16	=16	=16
4GGn^^>/	4Gn^^>\	.	4b 4gn/	4bb 4ggn\	.	4Gn\	rok.	.	4r	.	.	4gn/)	.	.	4b\	-le	.	2ryy	.	.
4Dn 4DDn^^>/	8r	.	(<8b/L	4gggn 4ggn\	.	4Dn\	Wy-	.	8r	.	.	(<8b/L	Nim	.	4ggn\	Nim	.	.	.	.
*	*	*	*	*	*	*	*	*	*8ba	*	*	*	*	*	*	*	*	*	*	*
!	!	!	!	!	!	!	!	!	!LO:TX:t=P:problem:tenor zapisany w kluczu wiolinowym	!	!LO:DY:a	!	!	!	!	!	!	!	!	!
!	!	!	!	!	!	!	!	!	!	!	!LO:DY:a:rj	!	!	!	!	!	!	!	!	!
.	8B^^>\	.	8g/J)	.	.	.	.	.	8B/	Wy-	f	8gn/J)	.	.	.	.	.	.	.	.
=17	=17	=17	=17	=17	=17	=17	=17	=17	=17	=17	=17	=17	=17	=17	=17	=17	=17	=17	=17	=17
4Cn 4CCn^^>/	8.A^>\L	.	8a'/L	4fff# 4ff#\	.	4Cn/	-pa-	.	8.A/	-pa-	.	8a/	jesz-	.	(>4ff#\	jesz-	.	2ryy	.	.
.	.	.	8e'/J	.	.	.	.	.	.	.	.	8e/	-cze	.	.	.	.	.	.	.
.	16B'\Jk	.	.	.	.	.	.	.	16B/	-dło	.	.	.	.	.	.	.	.	.	.
4BB 4BBB^^>/	8Gn'\L	.	4e/	4eee 4ee\	.	4BB/	-dło	.	8Gn/	im	.	[<4e/	mi-	.	4ee\	.	.	.	.	.
.	8A'\J	.	.	.	.	.	.	.	8A/	we-	.	.	.	.	.	.	.	.	.	.
!!LO:PB:g=original
=18	=18	=18	=18	=18	=18	=18	=18	=18	=18	=18	=18	=18	=18	=18	=18	=18	=18	=18	=18	=18
4AA 4AAA^^>/	8F#\	.	8e/	4dddn 4ddn\	.	4AA/	im	.	8F#/	-se-	.	4e/]	.	.	4ddn\)	.	.	2ryy	.	.
.	4F#^>\	.	4f#^</	.	.	.	.	.	4f#^>\	-le	.	.	.	.	.	.	.	.	.	.
4AA#X 4AAA#X^^>/	.	.	.	4ccc#X 4cc#X\	.	4AA#X/	we-	.	.	.	.	4f#/	-nął	.	4cc#X\	-cze	.	.	.	.
.	8e\	.	8f#/	.	.	.	.	.	8e\	Nim	.	.	.	.	.	.	.	.	.	.
=19	=19	=19	=19	=19	=19	=19	=19	=19	=19	=19	=19	=19	=19	=19	=19	=19	=19	=19	=19	=19
4BB 4BBB^^>/	8.d#X^>\L	.	2f#/	4bb 4b\	.	(>4BB/	-se-	.	8.d#X\	jesz-	.	[<2f#/	rok.	.	4b\	mi-	.	2ryy	.	.
.	16e'\Jk	.	.	.	.	.	.	.	16e\	-cze	.	.	.	.	.	.	.	.	.	.
4E 4EE^^>/	8c#'\L	.	.	4aa#X 4a#X\	.	4E\)	.	.	8c#\	mi-	.	.	.	.	4a#X/	-nął	.	.	.	.
.	8d#'\J	.	.	.	.	.	.	.	8d#\	-nął	.	.	.	.	.	.	.	.	.	.
=20	=20	=20	=20	=20	=20	=20	=20	=20	=20	=20	=20	=20	=20	=20	=20	=20	=20	=20	=20	=20
8D#L 8DD#'/	4B\	.	4f#/	16bbLL 16b\	.	4D#\	-le	.	4B\	rok.	.	4f#/]	.	.	4b\	rok.	.	2ryy	.	.
.	.	.	.	(>16ff#\	.	.	.	.	.	.	.	.	.	.	.	.	.	.	.	.
8C#J 8CC#'/	.	.	.	16ee\	.	.	.	.	.	.	.	.	.	.	.	.	.	.	.	.
.	.	.	.	16ff#\JJ	.	.	.	.	.	.	.	.	.	.	.	.	.	.	.	.
!	!	!	!	!	!LO:HP:b	!	!	!	!	!	!	!	!	!	!	!	!	!	!	!
4BB 4BBB^^>/	8r	.	8r	16dd#\LL	<	8r	.	.	8r	.	.	8r	.	.	8r	.	.	.	.	.
.	.	.	.	16ff#\	.	.	.	.	.	.	.	.	.	.	.	.	.	.	.	.
.	8B'\	.	(>16b\LL	16bb\)	.	8B\	A	.	8B\	.	.	8b\	.	.	8b\	A	.	.	.	.
.	.	.	16dd#\JJ)	16ddd#\JJ	[[	.	.	.	.	.	.	.	.	.	.	.	.	.	.	.
=21	=21	=21	=21	=21	=21	=21	=21	=21	=21	=21	=21	=21	=21	=21	=21	=21	=21	=21	=21	=21
4BB 4BBB/	8d# 8An 8F#\	.	8.ff#^>\L	8.fff#^>\L	.	4.B\	w karcz-	.	8.d#\	.	.	8.an/	.	.	8.ff#\	w karcz-	.	2ryy	.	.
.	4d# 4A 4F#^>\	.	.	.	.	.	.	.	.	.	.	.	.	.	.	.	.	.	.	.
.	.	.	16dd#'\Jk	16ddd#\Jk	.	.	.	.	16d#\	.	.	16a/	.	.	16ee\	-mie	.	.	.	.
8BBL 8BBB'/	.	.	8cc#'\L	8ccc#'\L	.	.	.	.	8d#\	.	.	8a/	.	.	8cc#\	jak	.	.	.	.
8BB'/J	8B'\	.	8dd#J 8b'\	8ddd#J 8aa'\	.	8B\	-mie	.	8d#\	.	.	8a/	.	.	8dd#\	w koś-	.	.	.	.
=22	=22	=22	=22	=22	=22	=22	=22	=22	=22	=22	=22	=22	=22	=22	=22	=22	=22	=22	=22	=22
8.BB^>/L	8.B^>\L	.	8b 8g#'/	8bb 8gg#'\	.	8.B\	w karcz-	.	8e\	.	.	8g#/	.	.	8b\	-cie-	.	2ryy	.	.
.	.	.	4b 4g#^>/	4eee 4ee^>\	.	.	.	.	4B\	.	.	4e/	.	.	4ee\	-le	.	.	.	.
16GG#'/Jk	16G#'\Jk	.	.	.	.	16G#\	-mie	.	.	.	.	.	.	.	.	.	.	.	.	.
8FF#'/L	8F#'\L	.	.	.	.	8F#\	jak	.	.	.	.	.	.	.	.	.	.	.	.	.
8EE'/J	8BJ 8E'\	.	8g# 8e'/	8gg# 8ee'\	.	8E\	w koś-	.	8B\	.	.	8e/	.	.	8g#/	Był	.	.	.	.
=23	=23	=23	=23	=23	=23	=23	=23	=23	=23	=23	=23	=23	=23	=23	=23	=23	=23	=23	=23	=23
2BB 2BBB/	8.BL 8.A^>\	.	8.f#L 8.d#^</	8.ff#L 8.dd#^>\	.	2BB/	-cie-	.	8.A/	.	.	8.d#/	.	.	8.f#/	ta-	.	2ryy	.	.
.	16G#'\Jk	.	16g#'/Jk	16gg#'\Jk	.	.	.	.	16G#/	.	.	16d#/	.	.	16g#/	-ki	.	.	.	.
.	8F#'\L	.	8a'/L	8aa'\L	.	.	.	.	8F#/	.	.	8d#/	.	.	8a/	lu-	.	.	.	.
.	8d#J 8B'\	.	8g#'/J	8gg#'\J	.	.	.	.	8B\	.	.	8d#/	.	.	8g#/	-du	.	.	.	.
!!LO:LB:g=original
=24	=24	=24	=24	=24	=24	=24	=24	=24	=24	=24	=24	=24	=24	=24	=24	=24	=24	=24	=24	=24
4.E 4.EE/	(>8d# 8A\	.	(>8cc#\	(>8ccc#\	.	4.E\	-le	.	(<8A/	tłok.	.	(<8d#/	tłok.	.	(>8cc#\	tłok.	.	2ryy	.	.
.	4e 4G#\)	.	4b\)	4bb\)	.	.	.	.	4G#/)	.	.	4e/)	.	.	4b\)	.	.	.	.	.
8E 8EE/	8g# 8B\	.	8ee\	8eee\	.	8E\	Był	.	8B\	A	.	8g#/	A	.	8ee\	A	.	.	.	.
=25	=25	=25	=25	=25	=25	=25	=25	=25	=25	=25	=25	=25	=25	=25	=25	=25	=25	=25	=25	=25
4C# 4CC#^^>/	8.g#L 8.e^>\	.	8.gg#^>\L	8.ggg#^>\L	.	[<2C#/	ta-	.	8.e\	w karcz-	.	8.g#/	w karcz-	.	8.gg#\	w karcz-	.	2ryy	.	.
.	16g#Jk 16d#'\	.	16ff#'\Jk	16fff#'\Jk	.	.	.	.	16d#\	-mie	.	16g#/	-mie	.	16ff#\	-mie	.	.	.	.
8C#L 8CC#'/	8g#L 8c#'\	.	8ee'\L	8eee'\L	.	.	.	.	8c#\	jak	.	8g#/	jak	.	8ee\	jak	.	.	.	.
8C#J 8CC#'/	8g#J 8B#X'\	.	8dd#'\J	8ddd#'\J	.	.	.	.	8B#X\	w koś-	.	8g#/	w koś-	.	8dd#\	w koś-	.	.	.	.
=26	=26	=26	=26	=26	=26	=26	=26	=26	=26	=26	=26	=26	=26	=26	=26	=26	=26	=26	=26	=26
4C# 4CC#^^>/	4e 4c# 4G#^^>\	.	(>8ff#\L	(>8fff#\L	.	2C#/]	.	.	4c#\	-cie-	.	4g#/	-cie-	.	(>8ff#\L	-cie-	.	2ryy	.	.
.	.	.	8ee\J)	8eee\J)	.	.	.	.	.	.	.	.	.	.	8ee\J)	.	.	.	.	.
8C#L 8CC#'/	8eL 8c# 8G# 8E'\	.	8g#'/L	8gg#'\L	.	.	.	.	8c#\	-le	.	8e/	-le	.	8g#/	-le	.	.	.	.
8C#J 8CC#'/	8eJ 8c# 8G# 8E'\	.	8cc#'/J	8ccc#'\J	.	.	.	.	8e\	Był	.	8g#/	Był	.	8cc#\	Był	.	.	.	.
=27	=27	=27	=27	=27	=27	=27	=27	=27	=27	=27	=27	=27	=27	=27	=27	=27	=27	=27	=27	=27
4AA 4AAA^^>/	4e 4c# 4A 4E^^>\	.	8.b#X^>\L	8.bb#X^>\L	.	2AA/	-ki	.	4e\	ta-	.	8.a/	ta-	.	8.b#X\	ta-	.	2ryy	.	.
.	.	.	16cc#'\Jk	16ccc#'\Jk	.	.	.	.	.	.	.	16a/	-ki	.	16cc#\	-ki	.	.	.	.
8AAL 8AAA'/	8eL 8c# 8A 8E'\	.	8eeL 8cc#'\	8eeeL 8ccc#'\	.	.	.	.	4e\	-ki	.	8cc#\	lu-	.	8ee\	lu-	.	.	.	.
8AAJ 8AAA'/	8eJ 8c# 8A 8E'\	.	8cc#J 8a'\	8ccc#J 8aa'\	.	.	.	.	.	.	.	8a/	-du	.	8cc#\	-du	.	.	.	.
=28	=28	=28	=28	=28	=28	=28	=28	=28	=28	=28	=28	=28	=28	=28	=28	=28	=28	=28	=28	=28
4F# 4FF#^^>/	4e 4c# 4A^^>\	.	4a/	4aa\	.	4F#\	tłok.	.	4c#\	tłok	.	4e/	tłok	.	4a/	tłok	.	2ryy	.	.
8r	8A'\L	.	4cc#\	4ccc#\	.	8r	.	.	8A/L	był	.	8r	.	.	4cc#\	Był	.	.	.	.
8E 8EE^^/	8g#J 8G#^^\	.	.	.	.	8E\	A	.	8G#/J	.	.	8g#/	A	.	.	.	.	.	.	.
=29	=29	=29	=29	=29	=29	=29	=29	=29	=29	=29	=29	=29	=29	=29	=29	=29	=29	=29	=29	=29
!	!	!	!	!	!	!	!	!	!	!	!	!	!	!	!LO:TX:a:t=P:problem:w źródle brak rozpoczęcia łuku	!	!	!	!	!
8.D#L 8.DD#^>/	8.f#L 8.B^>\	.	(>16b/LL	(>16bb\LL	.	8.D#\	w karcz-	.	[>2B\	ta-	.	8.f#/	w karcz-	.	(<[>2b\	ta-	.	2ryy	.	.
.	.	.	16f#/	16ff#\	.	.	.	.	.	.	.	.	.	.	.	.	.	.	.	.
.	.	.	16b/	16bb\	.	.	.	.	.	.	.	.	.	.	.	.	.	.	.	.
16EJk 16EE'/	16g#'\Jk	.	16cc#/JJ	16ccc#\JJ	.	16E\	-mie	.	.	.	.	16g#/	-mie	.	.	.	.	.	.	.
8C#L 8CC#'/	8e'\L	.	16b\LL	16bb\LL	.	8C#/	jak	.	.	.	.	8e/	jak	.	.	.	.	.	.	.
.	.	.	16cc#\	16ccc#\	.	.	.	.	.	.	.	.	.	.	.	.	.	.	.	.
8D#J 8DD#'/	8f#J 8B\	.	16b\	16bb\	.	8D#\	w koś-	.	.	.	.	8f#/	w koś-	.	.	.	.	.	.	.
.	.	.	16cc#\JJ)	16ccc#\JJ)	.	.	.	.	.	.	.	.	.	.	.	.	.	.	.	.
!!LO:PB:g=original
=30	=30	=30	=30	=30	=30	=30	=30	=30	=30	=30	=30	=30	=30	=30	=30	=30	=30	=30	=30	=30
*	*	*	*	*8va	*	*	*	*	*	*	*	*	*	*	*	*	*	*	*	*
*	*^	*	*	*	*	*	*	*	*	*	*	*	*	*	*	*	*	*	*	*
8BB 8BBB/	8f#L 8d#\	4ryy	.	(>16b\LL	(>16bb\LL	.	8BB/	-cie-	.	4B\]	.	.	4d#/	-cie-	.	8b/L]	.	.	2ryy	.	.
.	.	.	.	16dd#\	16ddd#\	.	.	.	.	.	.	.	.	.	.	.	.	.	.	.	.
4BB^>/	8d#J 8B^>\	.	.	16ff#\	16fff#\	.	4B^>\	-le	.	.	.	.	.	.	.	8a/J)	.	.	.	.	.
.	.	.	.	16aa\JJ	16aaa\JJ	.	.	.	.	.	.	.	.	.	.	.	.	.	.	.	.
.	(<8g#/L	4d# 4B\	.	16gg#\LL	16ggg#\LL	.	.	.	.	4B\	-ki	.	4d#/	-le	.	(<8g#/L	-ki	.	.	.	.
.	.	.	.	16ff#\	16fff#\	.	.	.	.	.	.	.	.	.	.	.	.	.	.	.	.
8A 8AA\	8f#/J)	.	.	16dd#\	16ddd#\	.	8A\	Był	.	.	.	.	.	.	.	8f#/J)	.	.	.	.	.
.	.	.	.	16ff#\JJ)	16fff#\JJ)	.	.	.	.	.	.	.	.	.	.	.	.	.	.	.	.
*	*v	*v	*	*	*	*	*	*	*	*	*	*	*	*	*	*	*	*	*	*	*
=31	=31	=31	=31	=31	=31	=31	=31	=31	=31	=31	=31	=31	=31	=31	=31	=31	=31	=31	=31	=31
8.G#L 8.GG#^</	4e 4B\	.	8ee'\	8eee'\	.	8.G#\	ta-	.	4B\	Był	.	4e/	Był	.	(>8e/	lu-	.	2ryy	.	.
.	.	.	4ee^^>\	4eeee 4eee^^>\	.	.	.	.	.	.	.	.	.	.	4ee\)	.	.	.	.	.
16AJk 16AA'/	.	.	.	.	.	16A\	-ki	.	.	.	.	.	.	.	.	.	.	.	.	.
8F#L 8FF#'/	8aL 8e 8c#\	.	.	.	.	8F#\	lu-	.	8c#\	ta-	.	8a/	ta-	.	.	.	.	.	.	.
8BB^</J	8aJ 8d# 8B^^>\	.	8dd# 8b^^>\	8dddd# 8bbb 8aaa 8ddd#^^>\	.	8B\	-du	.	8B\	-ki	.	8a/	-ki	.	8dd#\	-du	.	.	.	.
=32	=32	=32	=32	=32	=32	=32	=32	=32	=32	=32	=32	=32	=32	=32	=32	=32	=32	=32	=32	=32
!LO:TX:a:i:t=il bosso ben tenuto	!	!	!	!	!	!	!	!	!	!	!	!	!	!	!	!	!	!	!	!
4BB 4EE^^>/	8g#L 8e 8B^^>\	.	4ee 4b^^>\	4eeee 4bbb 4ggg# 4eee^^>\	.	4E\	tłok.	.	4B\	tłok.	.	4g#/	tłok.	.	4ee\	tłok.	.	2ryy	.	.
.	8eJ 8B 8G#\	.	.	.	.	.	.	.	.	.	.	.	.	.	.	.	.	.	.	.
*	*	*	*	*X8va	*	*	*	*	*	*	*	*	*	*	*	*	*	*	*	*
4BB 4EE^^>/	8r	.	4r	4r	.	4r	.	.	4r	.	.	4r	.	.	4r	.	.	.	.	.
.	8e 8B 8G#\	.	.	.	.	.	.	.	.	.	.	.	.	.	.	.	.	.	.	.
=33	=33	=33	=33	=33	=33	=33	=33	=33	=33	=33	=33	=33	=33	=33	=33	=33	=33	=33	=33	=33
4BB 4EE^^>/	8r	.	2r	2r	.	2r	.	.	2r	.	.	2r	.	.	2r	.	.	2ryy	.	.
.	8e 8B 8G#\	.	.	.	.	.	.	.	.	.	.	.	.	.	.	.	.	.	.	.
4BB 4EE^^>/	8r	.	.	.	.	.	.	.	.	.	.	.	.	.	.	.	.	.	.	.
.	8e 8B 8G#\	.	.	.	.	.	.	.	.	.	.	.	.	.	.	.	.	.	.	.
=34	=34	=34	=34	=34	=34	=34	=34	=34	=34	=34	=34	=34	=34	=34	=34	=34	=34	=34	=34	=34
!	!	!	!	!	!	!	!	!	!	!	!	!	!	!LO:DY:b:rj	!	!	!LO:DY:b:rj	!	!	!
4BB 4EE^^>/	8r	.	8cc#'\L	8ccc#'\L	f	2r	.	.	2r	.	.	8cc#\	.	f	8cc#\	Gra-	f	2ryy	.	.
!	!	!	!	!LO:TX:b:i:t=marcato	!	!	!	!	!	!	!	!	!	!	!	!	!	!	!	!
.	8e 8A#X 8F#\	.	8b'\J	8bb'\J	.	.	.	.	.	.	.	8b\	.	.	8b\	-ły	.	.	.	.
4BB 4EE^^>/	8r	.	4a#X^^>/	4aa#X^^>\	.	.	.	.	.	.	.	4a#X/	.	.	4a#X/	trzy	.	.	.	.
.	8e 8A# 8F#\	.	.	.	.	.	.	.	.	.	.	.	.	.	.	.	.	.	.	.
=35	=35	=35	=35	=35	=35	=35	=35	=35	=35	=35	=35	=35	=35	=35	=35	=35	=35	=35	=35	=35
4BB 4EE^^>/	8r	.	8g#/	8gg#\	.	2r	.	.	2r	.	.	8g#/	.	.	8g#/	ka-	.	2ryy	.	.
.	8e 8B 8G#\	.	4b^^>/	4bb^^>\	.	.	.	.	.	.	.	4b\	.	.	4b\	-pe-	.	.	.	.
4BB 4EE^^>/	8r	.	.	.	.	.	.	.	.	.	.	.	.	.	.	.	.	.	.	.
.	8e 8B 8G#\	.	8r	8ee\	.	.	.	.	.	.	.	8e/	.	.	8e/	-le	.	.	.	.
=36	=36	=36	=36	=36	=36	=36	=36	=36	=36	=36	=36	=36	=36	=36	=36	=36	=36	=36	=36	=36
4BB 4EE^^>/	8r	.	8.f#^>/L	8.ff#^>\L	.	2r	.	.	2r	.	.	8.f#/	.	.	8.f#/	Przez	.	2ryy	.	.
.	8e 8A#X 8F#\	.	.	.	.	.	.	.	.	.	.	.	.	.	.	.	.	.	.	.
.	.	.	16a#X'/Jk	16aa#X'\Jk	.	.	.	.	.	.	.	16a#X/	.	.	16a#X/	ca-	.	.	.	.
4BB 4EE^^>/	8r	.	8cc#'\L	8ccc#'\L	.	.	.	.	.	.	.	8cc#\	.	.	8cc#\	-łą	.	.	.	.
.	8e 8A# 8F#\	.	8dd#'\J	8ddd#'\J	.	.	.	.	.	.	.	8dd#\	.	.	8dd#\	nie-	.	.	.	.
!!LO:LB:g=original
=37	=37	=37	=37	=37	=37	=37	=37	=37	=37	=37	=37	=37	=37	=37	=37	=37	=37	=37	=37	=37
4BB 4EE^^>/	8r	.	8b\	8bb\	.	2r	.	.	2r	.	.	8b\	.	.	8b\	-dzie-	.	2ryy	.	.
.	8e 8B 8G#\	.	4ee 4g#^^>\	4eee 4gg#^^>\	.	.	.	.	.	.	.	4g#/	.	.	4ee\	-lę.	.	.	.	.
4BB 4EE^^>/	8r	.	.	.	.	.	.	.	.	.	.	.	.	.	.	.	.	.	.	.
.	8B 8G# 8E\	.	8r	8r	.	.	.	.	.	.	.	8r	.	.	8r	.	.	.	.	.
=38	=38	=38	=38	=38	=38	=38	=38	=38	=38	=38	=38	=38	=38	=38	=38	=38	=38	=38	=38	=38
!	!	!	!LO:TX:a:i:t=marcato	!	!	!	!	!	!	!	!LO:DY:b:rj	!	!	!	!	!	!	!	!	!
4EE 4AAA^^>/	8f#'\L	.	8ff#'\L	2r	.	2r	.	.	8f#\	Gra-	f	2r	.	.	2r	.	.	2ryy	.	.
.	8eJ 8A 8E'\	.	8ee'\J	.	.	.	.	.	8e\	-ły	.	.	.	.	.	.	.	.	.	.
4EE 4AAA^^>/	8r	.	4dd#X^^>\	.	.	.	.	.	4d#X^^>\	trzy	.	.	.	.	.	.	.	.	.	.
.	8d#X 8A 8F#\	.	.	.	.	.	.	.	.	.	.	.	.	.	.	.	.	.	.	.
=39	=39	=39	=39	=39	=39	=39	=39	=39	=39	=39	=39	=39	=39	=39	=39	=39	=39	=39	=39	=39
4EE 4AAA^^>/	8c#'\L	.	8cc#\	2r	.	2r	.	.	8c#\	ka-	.	2r	.	.	2r	.	.	2ryy	.	.
.	8eJ 8c# 8A 8E^^>\	.	4ee^^>\	.	.	.	.	.	4e\	-pe-	.	.	.	.	.	.	.	.	.	.
4EE 4AAA^^>/	8r	.	.	.	.	.	.	.	.	.	.	.	.	.	.	.	.	.	.	.
.	8c# 8A 8E\	.	8a/	.	.	.	.	.	8A/	-le	.	.	.	.	.	.	.	.	.	.
=40	=40	=40	=40	=40	=40	=40	=40	=40	=40	=40	=40	=40	=40	=40	=40	=40	=40	=40	=40	=40
*	*^	*	*	*	*	*	*	*	*	*	*	*	*	*	*	*	*	*	*	*
4EE 4AAA^^>/	8.e^>/L	8r	.	8.ee^>\L	2r	.	2r	.	.	8.e\	Przez	.	2r	.	.	2r	.	.	2ryy	.	.
.	.	8A 8F#\	.	.	.	.	.	.	.	.	.	.	.	.	.	.	.	.	.	.	.
.	16d#X/Jk	.	.	16dd#X'\Jk	.	.	.	.	.	16d#X\	ca-	.	.	.	.	.	.	.	.	.	.
4EE 4AAA^^>/	8B/L	8r	.	8b'/L	.	.	.	.	.	8B\	-łą	.	.	.	.	.	.	.	.	.	.
.	8A/J	8D#X\	.	8a'/J	.	.	.	.	.	8A/	nie-	.	.	.	.	.	.	.	.	.	.
*	*v	*v	*	*	*	*	*	*	*	*	*	*	*	*	*	*	*	*	*	*	*
=41	=41	=41	=41	=41	=41	=41	=41	=41	=41	=41	=41	=41	=41	=41	=41	=41	=41	=41	=41	=41
4EE 4AAA^^>/	8E\L	.	8e/	2r	.	2r	.	.	8E/	-dzie-	.	2r	.	.	2r	.	.	2ryy	.	.
.	8c#J 8A 8E^^>\	.	4cc#^^>\	.	.	.	.	.	4c#\	-lę.	.	.	.	.	.	.	.	.	.	.
4EE 4AAA^^>/	8r	.	.	.	.	.	.	.	.	.	.	.	.	.	.	.	.	.	.	.
.	8c# 8A 8E\	.	8r	.	.	.	.	.	8r	.	.	.	.	.	.	.	.	.	.	.
=42	=42	=42	=42	=42	=42	=42	=42	=42	=42	=42	=42	=42	=42	=42	=42	=42	=42	=42	=42	=42
!	!LO:TX:a:i:t=marcato	!	!	!	!	!	!	!LO:DY:a:rj	!	!	!	!	!	!	!	!	!	!	!	!
4GG# 4CC#^^>/	8A'\L	.	8r	8r	.	8A\	Gra-	f	2r	.	.	2r	.	.	2r	.	.	2ryy	.	.
.	8G#'\J	.	8cc# 8g# 8e/	8ccc# 8gg# 8ee\	.	8G#\	-ły	.	.	.	.	.	.	.	.	.	.	.	.	.
4GG# 4CC#^^>/	4F#^^>\	.	8r	8r	.	4F#^^>\	trzy	.	.	.	.	.	.	.	.	.	.	.	.	.
.	.	.	8b#X 8g# 8d#/	8bb#X 8gg# 8dd#\	.	.	.	.	.	.	.	.	.	.	.	.	.	.	.	.
=43	=43	=43	=43	=43	=43	=43	=43	=43	=43	=43	=43	=43	=43	=43	=43	=43	=43	=43	=43	=43
4GG# 4CC#^^>/	8E\	.	8r	8r	.	8E\	ka-	.	2r	.	.	2r	.	.	2r	.	.	2ryy	.	.
.	4G#^>\	.	8cc# 8g# 8e/	8ccc# 8gg# 8ee\	.	4G#\	-pe-	.	.	.	.	.	.	.	.	.	.	.	.	.
4GG# 4CC#^^>/	.	.	8r	8r	.	.	.	.	.	.	.	.	.	.	.	.	.	.	.	.
.	8D#\	.	8cc# 8g# 8e/	8ccc# 8gg# 8ee\	.	8D#\	-le	.	.	.	.	.	.	.	.	.	.	.	.	.
!!LO:PB:g=original
=44	=44	=44	=44	=44	=44	=44	=44	=44	=44	=44	=44	=44	=44	=44	=44	=44	=44	=44	=44	=44
4GG# 4CC#^^>/	8.C#^>\L	.	8r	8r	.	8.C#/	Przez	.	2r	.	.	2r	.	.	2r	.	.	2ryy	.	.
.	.	.	8bn 8g# 8e/	8bbn 8gg# 8ee\	.	.	.	.	.	.	.	.	.	.	.	.	.	.	.	.
.	16E'\Jk	.	.	.	.	16E\	ca-	.	.	.	.	.	.	.	.	.	.	.	.	.
4GG# 4CC#^^>/	8G#'\L	.	8r	8r	.	8G#\	-łą	.	.	.	.	.	.	.	.	.	.	.	.	.
.	8B'\J	.	8b 8g# 8e/	8bb 8gg# 8ee\	.	8B\	nie-	.	.	.	.	.	.	.	.	.	.	.	.	.
=45	=45	=45	=45	=45	=45	=45	=45	=45	=45	=45	=45	=45	=45	=45	=45	=45	=45	=45	=45	=45
[<2FF# [2FFF#^^>/	(>4A#X\	>	8a#X 8f# 8e/	8aa#X 8ff# 8ee\	.	(>4A#X\	-dzie-	.	2r	.	.	2r	.	.	4r	.	.	2ryy	.	.
.	.	.	8r	8r	.	.	.	.	.	.	.	.	.	.	.	.	.	.	.	.
!	!	!	!	!	!	!	!	!	!	!	!	!	!	!	!	!	!LO:DY:a	!	!	!
.	4G#\	.	4r	8r	mf	4G#\)	.	.	.	.	.	.	.	.	8r	.	mf	.	.	.
.	.	.	.	8b\	.	.	.	.	.	.	.	.	.	.	8b/	Wy-	.	.	.	.
=46	=46	=46	=46	=46	=46	=46	=46	=46	=46	=46	=46	=46	=46	=46	=46	=46	=46	=46	=46	=46
2FF#] 2FFF#/]	4F#\)	]mf	4r	8.a#X^</L	.	4F#\	-lę	.	4r	.	.	2r	.	.	8.a#X/	-pa-	.	2ryy	.	.
.	.	.	.	16b'/Jk	.	.	.	.	.	.	.	.	.	.	16b/	-dło	.	.	.	.
!	!	!	!	!	!	!	!	!	!	!	!LO:DY:a	!	!	!	!	!	!	!	!	!
.	(>4B^>\	.	8r	8g#'/L	.	4B\	Przez	.	8r	.	mf	.	.	.	8g#/	im	.	.	.	.
.	.	.	8e/	8a#'/J	.	.	.	.	8e\	Wy-	.	.	.	.	8a#/	we-	.	.	.	.
=47	=47	=47	=47	=47	=47	=47	=47	=47	=47	=47	=47	=47	=47	=47	=47	=47	=47	=47	=47	=47
8FF#'/L	4A#X\	.	8.c#^</L	8f#'/	.	(>4A#X\	ca-	.	8.c#\	pa-	.	2r	.	.	8f#/	-se-	.	2ryy	.	.
8CC#'/J	.	.	.	4ff#^^>\	.	.	.	.	.	.	.	.	.	.	4ff#\	-le	.	.	.	.
.	.	.	16d#'/Jk	.	.	.	.	.	16d#\	-dło	.	.	.	.	.	.	.	.	.	.
[<4FF#^^>/	4G#\	.	8B'/L	.	.	4G#\)	.	.	8B\	im	.	.	.	.	.	.	.	.	.	.
.	.	.	8c#'/J	8ee\	.	.	.	.	8c#\	we-	.	.	.	.	8ee\	Nim	.	.	.	.
=48	=48	=48	=48	=48	=48	=48	=48	=48	=48	=48	=48	=48	=48	=48	=48	=48	=48	=48	=48	=48
4.FF#/]	4F#\)	.	8A#X/	8.dd#^>\L	.	4F#\	-łą	.	8A#X/	-se-	.	4r	.	.	8.dd#\	jesz-	.	2ryy	.	.
.	.	.	4f#^^>/	.	.	.	.	.	4f#\	-le	.	.	.	.	.	.	.	.	.	.
.	.	.	.	16ee'\Jk	.	.	.	.	.	.	.	.	.	.	16ee\	-cze	.	.	.	.
.	(>4B^>\	.	.	8dd#'\L	.	4B\	nie-	.	.	.	.	8r	.	.	8dd#\	mi-	.	.	.	.
!	!	!	!	!	!	!	!	!	!	!	!	!	!	!LO:DY:a:rj	!	!	!	!	!	!
8FF#'/	.	.	8r	8b'\J	.	.	.	.	8r	.	.	8b\	Wy-	mf	8b\	-nął	.	.	.	.
=49	=49	=49	=49	=49	=49	=49	=49	=49	=49	=49	=49	=49	=49	=49	=49	=49	=49	=49	=49	=49
8FF#'/L	4A#X\	.	8.cc#^>\L	(>4.ff#\	.	(>4A#X\	-dzie-	.	2r	.	.	8.cc#\	-pa-	.	4.ff#\	rok	.	2ryy	.	.
8CC#'/J	.	.	.	.	.	.	.	.	.	.	.	.	.	.	.	.	.	.	.	.
.	.	.	16dd#'\Jk	.	.	.	.	.	.	.	.	16dd#\	-dło	.	.	.	.	.	.	.
[<4FF#^^>/	4G#\	.	8b'\L	.	.	4G#\)	.	.	.	.	.	8b\	im	.	.	.	.	.	.	.
.	.	.	8cc#'\J	8ee\)	.	.	.	.	.	.	.	8cc#\	we-	.	8ee\	Wy-	.	.	.	.
!!LO:LB:g=original
=50	=50	=50	=50	=50	=50	=50	=50	=50	=50	=50	=50	=50	=50	=50	=50	=50	=50	=50	=50	=50
4FF#/]	4F#\)	.	4a#X/	8.dd#^>\L	.	4F#\	-lę	.	4r	.	.	4a#X/	-se-	.	8.dd#\	-pa-	.	2ryy	.	.
.	.	.	.	16ee'\Jk	.	.	.	.	.	.	.	.	.	.	16ee\	-dło	.	.	.	.
(<4E 4EE/	8r	.	8g#'/L	8cc#'\L	.	4E\	nie-	.	8r	.	.	8g#/	-le	.	8cc#\	im	.	.	.	.
.	8A#X\	.	8f#'/J	8dd#'\J	.	.	.	.	8A#X/	Nim	.	8f#/	we-	.	8dd#\	we-	.	.	.	.
=51	=51	=51	=51	=51	=51	=51	=51	=51	=51	=51	=51	=51	=51	=51	=51	=51	=51	=51	=51	=51
4D# 4DD#/	8.B^>\L	.	4.f#/	(>8b\	.	(>4D#\	-dzie-	.	8.B\	jesz-	.	2f#/	-se-	.	(>8b\	-se-	.	2ryy	.	.
.	.	.	.	4ff#\)	.	.	.	.	.	.	.	.	.	.	4ff#\	.	.	.	.	.
.	16c#'\Jk	.	.	.	.	.	.	.	16c#\	-cze	.	.	.	.	.	.	.	.	.	.
4C# 4CC#/)	8A#X'\L	.	.	.	.	4C#/)	.	.	8A#X/	mi-	.	.	.	.	.	.	.	.	.	.
.	8e'\J	.	8f#/	8a#X/	.	.	.	.	8e\	-nął	.	.	.	.	8a#X/)	.	.	.	.	.
=52	=52	=52	=52	=52	=52	=52	=52	=52	=52	=52	=52	=52	=52	=52	=52	=52	=52	=52	=52	=52
2BB 2BBB^^>/	8d#\	.	4f#/	4b\	.	4BB/	-lę.	.	4d#\	rok.	.	4f#/	-le	.	4b\	-le.	.	2ryy	.	.
.	4d# 4B 4F#^^>\	<	.	.	.	.	.	.	.	.	.	.	.	.	.	.	.	.	.	.
.	.	.	4r	4r	.	4r	.	.	4r	.	.	4r	.	.	4r	.	.	.	.	.
.	8d# 8B 8F#\	.	.	.	.	.	.	.	.	.	.	.	.	.	.	.	.	.	.	.
=53	=53	=53	=53	=53	=53	=53	=53	=53	=53	=53	=53	=53	=53	=53	=53	=53	=53	=53	=53	=53
2BB 2FF# 2BBB^^>/	8r	f	2r	2r	.	2r	.	.	2r	.	.	2r	.	.	2r	.	.	2ryy	.	.
.	4d# 4B 4F#^^>\	.	.	.	.	.	.	.	.	.	.	.	.	.	.	.	.	.	.	.
.	8d# 8B 8F#\	.	.	.	.	.	.	.	.	.	.	.	.	.	.	.	.	.	.	.
=54	=54	=54	=54	=54	=54	=54	=54	=54	=54	=54	=54	=54	=54	=54	=54	=54	=54	=54	=54	=54
!	!	!	!	!	!	!	!	!LO:DY:a:rj	!	!	!LO:DY:a:rj	!	!	!LO:DY:b:rj	!	!	!LO:DY:a:rj	!	!	!
2BB 2FF# 2BBB^^>/	8r	.	8b 8e/	8bb 8ee\	f	8BB/	.	f	8F#/	.	f	8e/	.	f	8b\	Przed	f	2ryy	.	.
!	!	!	!	!LO:TX:b:i:t=marcato	!	!	!	!	!	!	!	!	!	!	!	!	!	!	!	!
.	4A#X 4F# 4C#^^>\	.	4a#X 4e^^>/	4aa#X 4ee^^>\	.	4BB/	.	.	4F#/	.	.	4e/	.	.	4a#X/	graj-	.	.	.	.
.	8A# 8F# 8C#\	.	8f# 8e/	8ff# 8ee\	.	8BB/	.	.	8F#/	.	.	8e/	.	.	8f#/	-kiem	.	.	.	.
=55	=55	=55	=55	=55	=55	=55	=55	=55	=55	=55	=55	=55	=55	=55	=55	=55	=55	=55	=55	=55
2BB 2FF# 2BBB^^>/	8r	.	8.dd#/L 8.f#/	8.ddd#L 8.ff#\	.	8.BB/	.	.	8.B\	.	.	8.f#/	.	.	8.dd#\	gdy	.	2ryy	.	.
.	4B 4F# 4D#^^>\	.	.	.	.	.	.	.	.	.	.	.	.	.	.	.	.	.	.	.
.	.	.	16ee/Jk 16g#/	16eeeJk 16gg#\	.	16BB/	.	.	16B\	.	.	16g#/	.	.	16ee\	sta-	.	.	.	.
.	.	.	8dd#L 8f#/	8ddd#L 8ff#\	.	8BB/	.	.	8B\	.	.	8f#/	.	.	8dd#\	-nę-	.	.	.	.
.	8d# 8B 8F#\	.	8b/J	8bbJ 8dd#\	.	8BB/	.	.	8B\	.	.	8d#/	.	.	8b\	-li	.	.	.	.
=56	=56	=56	=56	=56	=56	=56	=56	=56	=56	=56	=56	=56	=56	=56	=56	=56	=56	=56	=56	=56
2BB 2FF# 2BBB^^/	8r	.	8cc# 8f#/	8ccc# 8ff#\	.	8BB/	.	.	8A#X/	.	.	8f#/	.	.	8cc#\	Pan	.	2ryy	.	.
.	4e 4A#X 4F#^^\	.	4ff#^^>\	4fff#^^>\	.	4BB/	.	.	4A#/	.	.	4f#/	.	.	4ff#\	mło-	.	.	.	.
.	8e 8A# 8F#\	.	8a#X 8f#/	8aa#X 8ff#\	.	8BB/	.	.	8e\	.	.	8f#/	.	.	8a#X/	-dy	.	.	.	.
!!LO:PB:g=original
=57	=57	=57	=57	=57	=57	=57	=57	=57	=57	=57	=57	=57	=57	=57	=57	=57	=57	=57	=57	=57
2BB 2FF# 2BBB^^>/	8.d#L 8.A 8.F#^>\	.	8.bL 8.f#^>/	8.bbL 8.ff#^>\	.	8.BB/	.	.	8.d#\	.	.	8.f#/	.	.	8.b\	z żon-	.	2ryy	.	.
.	16A#XJk 16F#'\	.	16cc#Jk 16f#/	16ccc#Jk 16ff#\	.	16BB/	.	.	16A#X/	.	.	16f#/	.	.	16cc#\	-ką	.	.	.	.
.	8BL 8F#'\	.	4dd# 4f#/	4ddd# 4ff#\	.	4BB/	.	.	4B\	.	.	4f#/	.	.	4dd#\	swą,	.	.	.	.
.	8d#J 8B 8F#'\	.	.	.	.	.	.	.	.	.	.	.	.	.	.	.	.	.	.	.
=58	=58	=58	=58	=58	=58	=58	=58	=58	=58	=58	=58	=58	=58	=58	=58	=58	=58	=58	=58	=58
4GG# 4GGG#/	8B\	.	8ee 8g#/	8eee 8gg#\	.	8G#\	.	.	8B\	.	.	8g#/	.	.	8ee\	Dał	.	2ryy	.	.
.	4d# 4B 4G#^^>\	.	4dd#^>\	4ddd#^>\	.	4G#\	.	.	4B\	.	.	4g#/	.	.	4dd#\	wo-	.	.	.	.
4GG#/	.	.	.	.	.	.	.	.	.	.	.	.	.	.	.	.	.	.	.	.
.	8B 8G#\	.	8g#/	8gg#\	.	8G#\	.	.	8B\	.	.	8d#/	.	.	8g#/	-jak	.	.	.	.
=59	=59	=59	=59	=59	=59	=59	=59	=59	=59	=59	=59	=59	=59	=59	=59	=59	=59	=59	=59	=59
!	!	!LO:DY:t=mezzo f	!	!	!LO:DY:t=mezzo f	!	!	!	!	!	!	!	!	!	!	!	!	!	!	!
8.C#^>/L	8.eL 8.c#^>\	mf	8.a#X^>/L	8.aa#X^>\L	mf	8.c#\	.	.	8.e\	.	.	8.e/	.	.	8.a#X/	znak	.	2ryy	.	.
16BB'/Jk	16d#Jk 16B'\	.	16bJk 16g#'/	16bbJk 16gg#'\	.	16B\	.	.	16d#\	.	.	16g#/	.	.	16b/	ka-	.	.	.	.
8AA#X'/L	8c#L 8A#X'\	.	8cc#L 8a#'\	8ccc#L 8aa#'\	.	8A#X\	.	.	8c#\	.	.	8a#X/	.	.	8cc#\	-pe-	.	.	.	.
8GG#'/J	8BJ 8G#'\	.	8dd#J 8b'\	8ddd#J 8bb'\	.	8G#\	.	.	8B\	.	.	8b/	.	.	8dd#\	-li	.	.	.	.
=60	=60	=60	=60	=60	=60	=60	=60	=60	=60	=60	=60	=60	=60	=60	=60	=60	=60	=60	=60	=60
4BB 4BBB/	8B 8G#\	.	8g#/	8gg#\	.	8B\	.	.	8d#\	.	.	8g#/	.	.	8g#/	I	.	2ryy	.	.
.	4B 4G#\	.	(>4ee#X 4g#/	(>4eee#X\	.	4BB/	.	.	4d#\	.	.	4g#/	.	.	4ee#X\	huk-	.	.	.	.
4BB 4BBB/	.	.	.	.	.	.	.	.	.	.	.	.	.	.	.	.	.	.	.	.
.	8d# 8G#\	.	8dd#\)	8ddd#\)	.	8BB/	.	.	8G#/	.	.	8f#/	.	.	8dd#\	-nął	.	.	.	.
=61	=61	=61	=61	=61	=61	=61	=61	=61	=61	=61	=61	=61	=61	=61	=61	=61	=61	=61	=61	=61
2C# 2CC#/	4.e#X 4.G#\	.	8cc#\	8.ccc#\L	.	8.C#/	.	.	8.G#/	.	.	8.e#X/	.	.	8.cc#\	pios-	.	2ryy	.	.
.	.	.	8r	.	.	.	.	.	.	.	.	.	.	.	.	.	.	.	.	.
.	.	.	.	16gg#\Jk	.	16C#/	.	.	16G#/	.	.	16e#/	.	.	16g#/	-nkę	.	.	.	.
.	.	.	8r	[>4ccc# [<4cc#\	.	8C#/	.	.	8G#/	.	.	8e#/	.	.	[>4cc#\	swą:	.	.	.	.
.	8d#\	.	8b\	.	.	8C#/	.	.	8d#\	ach!	.	8b/	ach!	.	.	.	.	.	.	.
!!LO:LB:g=original
=62	=62	=62	=62	=62	=62	=62	=62	=62	=62	=62	=62	=62	=62	=62	=62	=62	=62	=62	=62	=62
!	!LO:TX:b:i:t=rit	!	!	!LO:TX:b:i:t=rit.	!	!LO:TX:a:i:t=rit	!	!	!LO:TX:a:i:t=rit	!	!	!LO:TX:t=P:problem:w t. 62-79 alt zapisany na jednej pięciolinii z sopranem	!	!	!LO:TX:t=P:problem:w t. 62-79 sopran zapisany na jednej pięciolinii z altem	!	!	!	!	!
!	!	!	!	!	!	!	!	!LO:HP:b	!	!	!LO:HP:b	!	!	!	!	!	!LO:HP:b	!	!	!
(<4D# 4DD#/	(>4c#\	>	(<4a#X/	2ccc#] 2cc#\]	>]	4D#\	.	>	4c#\	pios-	>	4a#\	piosn-	.	2cc#/_>	piosnkę	>	2r	.	.
!	!	!	!	!	!	!	!	!	!	!	!	!	!	!	!	!	!	!LO:TX:a:i:t=Meno mosso	!	!
4E#X 4EE#X/)	4B\)	]]	4g#/)	.	.	4E#X\	.	]]	4B\	-nkę	]]	4g#\	-kę	.	.	-nkę	.	.	.	.
=63||	=63||	=63||	=63||	=63||	=63||	=63||	=63||	=63||	=63||	=63||	=63||	=63||	=63||	=63||	=63||	=63||	=63||	=63||	=63||	=63||
*	*	*	*	*	*	*	*	*	*	*	*	*	*	*	*	*	*	*8ba	*	*
!	!	!	!	!	!	!	!	!	!	!	!	!	!	!	!	!	!	!LO:TX:t=P:problem:tenor solo zapisany w kluczu wiolinowym	!	!
!	!LO:TX:a:i:t=Meno mosso	!	!	!LO:TX:a:i:t=Meno mosso.	!	!	!	!	!	!	!	!	!	!	!LO:TX:a:i:t=Meno mosso	!	!	!	!	!LO:DY:a
!	!	!	!	!	!LO:DY:rj	!	!	!	!	!	!	!	!	!	!	!	!	!	!	!
4F# 4FF#/	4A#X\	p	8cc#L 8a#X\	8ccc#L 8aa#X\	p	4F#\	.	.	4A#X/	swą:	.	4f#\	swą:	.	4cc#/]	swą:	]	8c#\	Da-	mf
!	!	!	!	!LO:TX:b:i:t=dolce	!	!	!	!	!	!	!	!	!	!	!	!	!	!	!	!
.	.	.	8cc#\J	8ccc#\J	.	.	.	.	.	.	.	.	.	.	.	.	.	8c#\	-naż	.
.	.	.	(<8qee#X/	8qeee#X/	.	.	.	.	.	.	.	.	.	.	.	.	.	(<8qe#X/	.	.
4r	4r	.	(>8.dd#L 8.b\)	(>8.ddd#L 8.bb\	.	4r	.	.	4r	.	.	4r	.	.	4r	.	.	8.d#\)	mo-	.
.	.	.	16cc#Jk 16a#\)	16ccc#Jk 16aa#\)	.	.	.	.	.	.	.	.	.	.	.	.	.	16c#\	-ja,	.
=64	=64	=64	=64	=64	=64	=64	=64	=64	=64	=64	=64	=64	=64	=64	=64	=64	=64	=64	=64	=64
2FF# 2FFF#/	8r	.	8ff# 8a#X\	8fff# 8aa#X\	.	2r	.	.	2r	.	.	2r	.	.	2r	.	.	8f#\	da-	.
.	4c# 4F# 4C#\	.	4cc# 4a#^>/	4ccc# 4aa#^>\	.	.	.	.	.	.	.	.	.	.	.	.	.	4c#\	-na	.
.	8c# 8F# 8C#\	.	8r	8r	.	.	.	.	.	.	.	.	.	.	.	.	.	8r	.	.
=65	=65	=65	=65	=65	=65	=65	=65	=65	=65	=65	=65	=65	=65	=65	=65	=65	=65	=65	=65	=65
2FF# 2FFF#/	8r	.	(>8g#L 8e#X/	(>8gg#L 8ee#X\	.	2r	.	.	2r	.	.	2r	.	.	2r	.	.	8G#/	Żon-	.
.	4c# 4E#X 4C#\	.	8cc#J 8a#X/	8ccc#J 8aa#X\	.	.	.	.	.	.	.	.	.	.	.	.	.	8c#\	-ko	.
.	.	.	8.bL 8.g#/	8.bbL 8.gg#\	.	.	.	.	.	.	.	.	.	.	.	.	.	8.B\	u-	.
.	8c# 8E# 8C#\	.	.	.	.	.	.	.	.	.	.	.	.	.	.	.	.	.	.	.
.	.	.	16dd#Jk 16b/)	16ddd#Jk 16bb\)	.	.	.	.	.	.	.	.	.	.	.	.	.	16d#\	-ko-	.
=66	=66	=66	=66	=66	=66	=66	=66	=66	=66	=66	=66	=66	=66	=66	=66	=66	=66	=66	=66	=66
4FF# 4FFF#/	8r	.	(>8dd# 8b\	(>8ddd# 8bb\	.	2r	.	.	2r	.	.	2r	.	.	2r	.	.	8d#\	-cha-	.
.	8c# 8F# 8C#\	.	4cc# 4a#X\)	4ccc# 4aa#X\)	.	.	.	.	.	.	.	.	.	.	.	.	.	4c#\	-na.	.
(<4En 4EEn/	8r	.	.	.	.	.	.	.	.	.	.	.	.	.	.	.	.	.	.	.
.	8c# 8A#X 8F#\	.	8r	8r	.	.	.	.	.	.	.	.	.	.	.	.	.	8r	.	.
=67	=67	=67	=67	=67	=67	=67	=67	=67	=67	=67	=67	=67	=67	=67	=67	=67	=67	=67	=67	=67
4Dn 4DDn/	8r	<	8ddnL 8an 8f#/	8dddnL 8aan 8ff#\	<	2r	.	.	2r	.	.	2r	.	.	2r	.	.	8dn\	Da-	.
.	8dn 8An 8F#\	.	8dd/J	8ddd\J	.	.	.	.	.	.	.	.	.	.	.	.	.	8d\	-naż	.
.	.	.	(<8qff#/	(<8qfff#/	[	.	.	.	.	.	.	.	.	.	.	.	.	(<8qf#/	.	.
4Cn) 4CCn/	8r	.	(>8.een\L)	(>8.eeen\L)	.	.	.	.	.	.	.	.	.	.	.	.	.	8.en\)	mo-	.
.	8d 8A 8F#\	[	.	.	.	.	.	.	.	.	.	.	.	.	.	.	.	.	.	.
.	.	.	16dd\Jk)	16ddd\Jk)	.	.	.	.	.	.	.	.	.	.	.	.	.	16d\	-ja,	.
!!LO:PB:g=original
=68	=68	=68	=68	=68	=68	=68	=68	=68	=68	=68	=68	=68	=68	=68	=68	=68	=68	=68	=68	=68
(<4BB 4BBB/	8r	.	(>8ggn\	(>8gggn\	.	2r	.	.	2r	.	.	2r	.	.	2r	.	.	8gn\	da-	.
.	4dn 4Gn 4Dn\	.	4ddn\)	4dddn\)	.	.	.	.	.	.	.	.	.	.	.	.	.	4dn\	-na,	.
4GGn 4GGGn/)	.	.	.	.	.	.	.	.	.	.	.	.	.	.	.	.	.	.	.	.
.	8d 8B 8D\	.	8r	8r	.	.	.	.	.	.	.	.	.	.	.	.	.	8r	.	.
=69	=69	=69	=69	=69	=69	=69	=69	=69	=69	=69	=69	=69	=69	=69	=69	=69	=69	=69	=69	=69
2GGn 2GGGn/	8r	.	(>8aL 8f#/	(>8aaL 8ff#\	.	2r	.	.	2r	.	.	2r	.	.	2r	.	.	8A/	Żon-	.
.	4dn 4F# 4Dn\	.	8ddnJ 8b/	8dddnJ 8bb\	.	.	.	.	.	.	.	.	.	.	.	.	.	8dn\	-ko	.
.	.	.	8.ccnL 8.a\	8.cccnL 8.aa\	.	.	.	.	.	.	.	.	.	.	.	.	.	8.cn\	u-	.
.	8d 8F# 8D\	.	.	.	.	.	.	.	.	.	.	.	.	.	.	.	.	.	.	.
.	.	.	16eeJk 16cc\)	16eeeJk 16ccc\)	.	.	.	.	.	.	.	.	.	.	.	.	.	16e\	-ko-	.
=70	=70	=70	=70	=70	=70	=70	=70	=70	=70	=70	=70	=70	=70	=70	=70	=70	=70	=70	=70	=70
2GGn 2GGGn/	8r	.	(>8ee 8ccn\	(>8eee 8cccn\	.	2r	.	.	2r	.	.	2r	.	.	2r	.	.	8e\	-cha-	.
.	4dn 4Gn 4Dn\	.	4ddn 4b\)	4dddn 4bb\)	.	.	.	.	.	.	.	.	.	.	.	.	.	4dn\	-na.	.
.	8d 8B 8G\	.	8r	8r	.	.	.	.	.	.	.	.	.	.	.	.	.	8r	.	.
=71	=71	=71	=71	=71	=71	=71	=71	=71	=71	=71	=71	=71	=71	=71	=71	=71	=71	=71	=71	=71
2E 2EE/	8r	.	(>8ddn\L	(>8dddn\L	.	2r	.	.	2r	.	.	2r	.	.	2r	.	.	8dn\	Bo-	.
.	4c# 4B 4Gn\	.	8cc#X\J	8ccc#X\J	.	.	.	.	.	.	.	.	.	.	.	.	.	8c#X\	-że,	.
.	.	.	8.ff#\L	8.fff#\L	.	.	.	.	.	.	.	.	.	.	.	.	.	8.f#\	z to-	.
.	8c# 8A#X 8F#\	.	.	.	.	.	.	.	.	.	.	.	.	.	.	.	.	.	.	.
.	.	.	16a#X\Jk	16aa#X\Jk	.	.	.	.	.	.	.	.	.	.	.	.	.	16A#X/	-bą	.
=72	=72	=72	=72	=72	=72	=72	=72	=72	=72	=72	=72	=72	=72	=72	=72	=72	=72	=72	=72	=72
2D#X 2DD#X/	8f#\L	.	8cc#\	8ccc#\	.	2r	.	.	2r	.	.	2r	.	.	2r	.	.	(>8c#\	daj	.
.	(>8BJ 8F#\	.	4b\)	4bb\)	.	.	.	.	.	.	.	.	.	.	.	.	.	4B\)	.	.
.	16A#X\LL	.	.	.	.	.	.	.	.	.	.	.	.	.	.	.	.	.	.	.
.	16B\	.	.	.	.	.	.	.	.	.	.	.	.	.	.	.	.	.	.	.
.	16c#\	.	8r	8r	.	.	.	.	.	.	.	.	.	.	.	.	.	8r	.	.
.	16d#\JJ	.	.	.	.	.	.	.	.	.	.	.	.	.	.	.	.	.	.	.
=73	=73	=73	=73	=73	=73	=73	=73	=73	=73	=73	=73	=73	=73	=73	=73	=73	=73	=73	=73	=73
4C# 4CC#/	8e\L)	.	(16g#/LL	(>16gg#\LL	.	2r	.	.	2r	.	.	2r	.	.	2r	.	.	(<16G#/LL	Prze-	.
.	.	.	16a#X/	16aa#X\	<	.	.	.	.	.	.	.	.	.	.	.	.	16A#X/JJ)	.	.
.	8eJ 8B 8G#\	.	16b/	16bb\	.	.	.	.	.	.	.	.	.	.	.	.	.	(>16B\LL	-żyć	.
.	.	.	16cc#/JJ	16ccc#\JJ	.	.	.	.	.	.	.	.	.	.	.	.	.	16c#\JJ)	.	.
4FF# 4FFF#/	8r	.	8dd#\L	8ddd#\L	.	.	.	.	.	.	.	.	.	.	.	.	.	8d#\	la-	.
.	8e 8A#X 8F#\	.	8ee\J)	8eee\J)	[	.	.	.	.	.	.	.	.	.	.	.	.	8e\	-tek	.
!!LO:LB:g=original
=74	=74	=74	=74	=74	=74	=74	=74	=74	=74	=74	=74	=74	=74	=74	=74	=74	=74	=74	=74	=74
(<4BB 4BBB/	8r	mf	(>4gg#\	(>4ggg#\	mf	2r	.	.	2r	.	.	2r	.	.	2r	.	.	(>4g#\	sto!	.
.	8d# 8B 8F#\	.	.	.	.	.	.	.	.	.	.	.	.	.	.	.	.	.	.	.
4D# 4DD#/)	8r	.	4ff#\)	4fff#\)	.	.	.	.	.	.	.	.	.	.	.	.	.	4f#\)	.	.
.	8f# 8B 8F#\	.	.	.	.	.	.	.	.	.	.	.	.	.	.	.	.	.	.	.
=75	=75	=75	=75	=75	=75	=75	=75	=75	=75	=75	=75	=75	=75	=75	=75	=75	=75	=75	=75	=75
(<4C# 4CC#/	8r	.	(>8.ee#X\L	(>8.eee#X\L	.	2r	.	.	2r	.	.	2r	.	.	2r	.	.	8.e#X\	Bo-	.
.	8e#X 8B 8G#\	.	.	.	.	.	.	.	.	.	.	.	.	.	.	.	.	.	.	.
.	.	.	16cc#\Jk	16ccc#\Jk	.	.	.	.	.	.	.	.	.	.	.	.	.	16c#\	-że,	.
4FF# 4FFF#/)	8r	.	8dd#\L	8ddd#\L	.	.	.	.	.	.	.	.	.	.	.	.	.	8d#\	z to-	.
.	8en 8A#X 8F#\	.	8een\J)	8eeen\J)	.	.	.	.	.	.	.	.	.	.	.	.	.	8en\	-bą	.
=76	=76	=76	=76	=76	=76	=76	=76	=76	=76	=76	=76	=76	=76	=76	=76	=76	=76	=76	=76	=76
*	*^	*	*	*	*	*	*	*	*	*	*	*	*	*	*	*	*	*	*	*
(<4FF##X 4FFF##X/	8r	8ryy	.	(>4dd#\	(>4ddd#\	.	2r	.	.	2r	.	.	2r	.	.	2r	.	.	(>4d#\	daj	.
.	(>8d#/	8A#X 8D#\	.	.	.	.	.	.	.	.	.	.	.	.	.	.	.	.	.	.	.
4GG# 4GGG#/)	16e/LL	8r	.	4b\)	4bb\)	.	.	.	.	.	.	.	.	.	.	.	.	.	4B\)	.	.
.	16d#/	.	.	.	.	.	.	.	.	.	.	.	.	.	.	.	.	.	.	.	.
.	16c#/	8G# 8D#\	.	.	.	.	.	.	.	.	.	.	.	.	.	.	.	.	.	.	.
.	16B/JJ)	.	.	.	.	.	.	.	.	.	.	.	.	.	.	.	.	.	.	.	.
*	*v	*v	*	*	*	*	*	*	*	*	*	*	*	*	*	*	*	*	*	*	*
=77	=77	=77	=77	=77	=77	=77	=77	=77	=77	=77	=77	=77	=77	=77	=77	=77	=77	=77	=77	=77
(<8EL 8EE/	(>8c#L 8G#\	.	(>16f##X/LL	(>16ff##X\LL	.	2r	.	.	2r	.	.	2r	.	.	2r	.	.	(<16F##X/LL	Prze-	.
.	.	.	16g#/	16gg#\	>	.	.	.	.	.	.	.	.	.	.	.	.	16G#/JJ)	.	.
8C#J 8CC#/	8eJ 8G#\)	>	16a#X/	16aa#X\	.	.	.	.	.	.	.	.	.	.	.	.	.	(<16A#X/LL	-żyć	.
.	.	.	16b/JJ	16bb\JJ	.	.	.	.	.	.	.	.	.	.	.	.	.	16B/JJ)	.	.
4FF# 4FFF#/)	(>8eL 8B\	.	8cc#\L	8ccc#\L	.	.	.	.	.	.	.	.	.	.	.	.	.	8c#\	la-	.
.	8f#J 8A#X\)	]]	8dd#\J)	8ddd#\J)	]	.	.	.	.	.	.	.	.	.	.	.	.	8d#\	-tek	.
=78	=78	=78	=78	=78	=78	=78	=78	=78	=78	=78	=78	=78	=78	=78	=78	=78	=78	=78	=78	=78
!	!	!	!	!	!	!	!	!	!	!	!LO:DY:a:rj	!	!	!	!	!	!	!	!	!
2BB 2BBB/	8d# 8F#\	p	8b\L	4bb\	p	2r	.	.	8B\	Da-	p	2r	.	.	2r	.	.	4B\	sto	.
.	4d# 4F#\	.	(>8b\J	.	.	.	.	.	8B\	-naż	.	.	.	.	.	.	.	.	.	.
.	.	.	(<8qdd#/	.	.	.	.	.	(<8qd#/	.	.	.	.	.	.	.	.	.	.	.
*	*	*	*	*	*	*	*	*	*	*	*	*	*	*	*	*	*	*X8ba	*	*
.	.	.	8cc#\L)	4r	.	.	.	.	8.c#\)	mo-	.	.	.	.	.	.	.	4r	.	.
.	8d# 8F#\	.	8b\J	.	.	.	.	.	.	.	.	.	.	.	.	.	.	.	.	.
.	.	.	.	.	.	.	.	.	16B\	-ja,	.	.	.	.	.	.	.	.	.	.
=79	=79	=79	=79	=79	=79	=79	=79	=79	=79	=79	=79	=79	=79	=79	=79	=79	=79	=79	=79	=79
4BB 4BBB/	8r	.	8ff#\	16r	.	2r	.	.	8f#\	da-	.	2r	.	.	2r	.	.	2r	.	.
.	.	.	.	(>16aa#X\LL	.	.	.	.	.	.	.	.	.	.	.	.	.	.	.	.
.	(>4f# 4d#^>\	.	4b\)	16bb\	.	.	.	.	4B\	-na,	.	.	.	.	.	.	.	.	.	.
.	.	.	.	16ccc#\JJ	.	.	.	.	.	.	.	.	.	.	.	.	.	.	.	.
4r	.	.	.	8ddd#\)	.	.	.	.	.	.	.	.	.	.	.	.	.	.	.	.
.	16eLL 16c#\	.	8r	8r	.	.	.	.	8r	.	.	.	.	.	.	.	.	.	.	.
.	16d#JJ 16B\)	.	.	.	.	.	.	.	.	.	.	.	.	.	.	.	.	.	.	.
!!LO:PB:g=original
=80	=80	=80	=80	=80	=80	=80	=80	=80	=80	=80	=80	=80	=80	=80	=80	=80	=80	=80	=80	=80
!	!	!	!	!	!	!	!	!LO:DY:b:rj	!	!	!	!	!	!	!	!	!	!LO:TX:t=P:problem:w źródle od tego taktu do końca utworu brak pięciolinii dla partii "Solo Tenor"	!	!
2BB 2BBB/	8c#L 8An\	.	16r	16r	.	8A\	.	p	8c#\	Da-	.	2r	.	.	2r	.	.	2ryy	.	.
.	.	.	(>16g#/LL	(>16gg#\LL	.	.	.	.	.	.	.	.	.	.	.	.	.	.	.	.
.	8c#J 8A\	.	16an/	16aan\	.	8A\	.	.	8c#\	-naż,	.	.	.	.	.	.	.	.	.	.
.	.	.	16cc#/JJ	16ccc#\JJ	.	.	.	.	.	.	.	.	.	.	.	.	.	.	.	.
.	(<8qe/	.	.	.	.	.	.	.	(<8qe/	.	.	.	.	.	.	.	.	.	.	.
.	(>8.d#L 8.B\)	.	8ff#\)	8fff#\)	.	8.B\	.	.	8.d#\)	mo-	.	.	.	.	.	.	.	.	.	.
.	.	.	8r	8r	.	.	.	.	.	.	.	.	.	.	.	.	.	.	.	.
.	16c#Jk 16A\)	.	.	.	.	16A\	.	.	16c#\	-ja	.	.	.	.	.	.	.	.	.	.
=81	=81	=81	=81	=81	=81	=81	=81	=81	=81	=81	=81	=81	=81	=81	=81	=81	=81	=81	=81	=81
*	*^	*	*	*	*	*	*	*	*	*	*	*	*	*	*	*	*	*	*	*
4BB 4BBB/	8d# 8A\	8ryy	.	16r	16r	.	(>4A\	da-	.	8f#\	da-	.	2r	.	.	2r	.	.	2ryy	.	.
.	.	.	.	(<16a/LL	(>16aa\LL	.	.	.	.	.	.	.	.	.	.	.	.	.	.	.	.
.	4.B/	(>8A\L	.	16b/	16bb\	.	.	.	.	4B\	-na	.	.	.	.	.	.	.	.	.	.
.	.	.	.	16dd#/JJ	16ddd#\JJ	.	.	.	.	.	.	.	.	.	.	.	.	.	.	.	.
4r	.	8G#\	.	8ff#\)	8fff#\)	.	8G#\L	.	.	.	.	.	.	.	.	.	.	.	.	.	.
.	.	8F#\J)	.	8r	8r	.	8F#\J)	.	.	8r	.	.	.	.	.	.	.	.	.	.	.
*	*v	*v	*	*	*	*	*	*	*	*	*	*	*	*	*	*	*	*	*	*	*
=82	=82	=82	=82	=82	=82	=82	=82	=82	=82	=82	=82	=82	=82	=82	=82	=82	=82	=82	=82	=82
!	!	!LO:DY:rj	!	!	!LO:DY:rj	!	!	!	!	!	!	!	!	!LO:DY:a:rj	!	!	!LO:DY:a:rj	!	!	!
2BB 2EE/	8E\	p	8bL 8g#/	8bbL 8gg#\	p	4E\	-na	.	2r	.	.	8g#/	.	p	8b\	Da-	p	2ryy	.	.
.	4B 4E\	.	(<8bJ 8g#/	(>8bbJ 8gg#\	.	.	.	.	.	.	.	8g#/	.	.	8b\	-naż	.	.	.	.
.	.	.	(<8qdd#/	(<8qddd#/	.	.	.	.	.	.	.	.	.	.	(<8qdd#/	.	.	.	.	.
.	.	.	8.cc#L 8.a/)	8.ccc#L 8.aa\)	.	4r	.	.	.	.	.	8.a/	.	.	8.cc#\)	mo-	.	.	.	.
.	8B 8E\	.	.	.	.	.	.	.	.	.	.	.	.	.	.	.	.	.	.	.
.	.	.	16bJk 16g#/)	16bbJk 16gg#\)	.	.	.	.	.	.	.	16g#/	.	.	16b\	-ja,	.	.	.	.
=83	=83	=83	=83	=83	=83	=83	=83	=83	=83	=83	=83	=83	=83	=83	=83	=83	=83	=83	=83	=83
!	!	!	!	!	!	!	!	!LO:DY:a:rj	!	!	!LO:DY:a:rj	!	!	!	!	!	!	!	!	!
2BB 2EE/	8BL 8E\	.	(>8ee 8g#/	(>8eee 8gg#\	.	8E\	.	p	8B\	Da-	p	8g#/	.	.	8ee\	da-	.	2ryy	.	.
.	(>8BJ 8G#\	.	4b 4g#/)	4bb 4gg#\)	.	8G#\	.	.	8B\	-naż	.	4g#/	.	.	4b\	-na	.	.	.	.
.	8qd#/	.	.	.	.	.	.	.	(<8qd#/	.	.	.	.	.	.	.	.	.	.	.
.	8.c#L 8.A\	.	.	.	.	8.A\	.	.	8.c#\)	mo-	.	.	.	.	.	.	.	.	.	.
.	.	.	8r	8r	.	.	.	.	.	.	.	8r	.	.	8r	.	.	.	.	.
.	16BJk 16G#\)	.	.	.	.	16G#\	.	.	16B\	-ja,	.	.	.	.	.	.	.	.	.	.
=84	=84	=84	=84	=84	=84	=84	=84	=84	=84	=84	=84	=84	=84	=84	=84	=84	=84	=84	=84	=84
!	!	!	!	!	!	!	!	!	!	!	!	!	!	!LO:HP:b	!	!	!LO:HP:a	!	!	!
2BB 2EE/	8B 8A\	<	(<8f#L 8d#/	(>8ff#L 8dd#\	<	8A\	.	.	8B\	da-	.	8d#/	.	<	8f#/	Żon-	<	2ryy	.	.
.	4B 4D#\	.	8bJ 8g#/	8bbJ 8gg#\	.	4D#\	.	.	4B\	-na	.	8g#/	.	.	8b/	-ko	.	.	.	.
.	.	.	8.aL 8.f#/	8.aaL 8.ff#\	.	.	.	.	.	.	.	8.f#/	.	.	8.a/	u-	.	.	.	.
.	8r	[	.	.	.	8r	.	.	8r	.	.	.	.	.	.	.	[	.	.	.
.	.	.	16cc#Jk 16a/)	16ccc#Jk 16aa\)	[	.	.	.	.	.	.	16a/	.	[	16cc#\	-ko-	.	.	.	.
!!LO:LB:g=original
=85	=85	=85	=85	=85	=85	=85	=85	=85	=85	=85	=85	=85	=85	=85	=85	=85	=85	=85	=85	=85
!	!	!	!	!	!	!	!	!LO:HP:b	!	!	!LO:HP:a	!	!	!	!	!	!	!	!	!
4BB 4EE/	8BL 8E\	<	(<8cc# 8a/	(>8ccc# 8aa\	.	8E\	.	<	8B\	Da	<	8a/	.	.	8cc#\	-cha-	.	2ryy	.	.
.	8BJ 8G#\	.	4b 4g#/)	4bb 4gg#\)	.	8G#\	.	.	8B\	-na,	.	4g#/	.	.	4b\	-na,	.	.	.	.
.	(<8qd#	.	.	.	.	.	.	.	8qd#/	.	.	.	.	.	.	.	.	.	.	.
4r	8.c#L) 8.A\	[	.	.	.	8.A\	.	.	8.c#\	da-	.	.	.	.	.	.	.	.	.	.
.	.	.	8r	8r	.	.	.	[	.	.	[	8r	.	.	8r	.	.	.	.	.
.	16BJk 16G#\	.	.	.	.	16G#\	.	.	16B\	-na,	.	.	.	.	.	.	.	.	.	.
=86	=86	=86	=86	=86	=86	=86	=86	=86	=86	=86	=86	=86	=86	=86	=86	=86	=86	=86	=86	=86
!	!	!	!	!	!	!	!	!LO:DY:a:rj	!	!	!LO:DY:a:rj	!	!	!LO:DY:b:rj	!	!	!LO:DY:a:rj	!	!	!
4EE/	4B 4E\	f	8.bL 8.g#^</	8.bbL 8.gg#^>\	f	8.E\	.	f	8.B\	.	f	8.g#/	.	f	8.b\	Bo-	f	2ryy	.	.
.	.	.	16a#XJk 16f##X/	16aa#XJk 16ff##X\	.	16E\	.	.	16B\	.	.	16f##X/	.	.	16a#X/	-że,	.	.	.	.
8EE/L	8BL 8E\	.	8bL 8g#/	8bbL 8gg#\	.	8E\	.	.	8e\	.	.	8g#/	.	.	8b\	z to-	.	.	.	.
8GG#J 8GGG#/	8eJ 8B 8G# 8E\	.	8eeJ 8b 8g#/	8eeeJ 8gg#\	.	8G#\	.	.	8e\	.	.	8b\	.	.	8ee\	-bą	.	.	.	.
=87	=87	=87	=87	=87	=87	=87	=87	=87	=87	=87	=87	=87	=87	=87	=87	=87	=87	=87	=87	=87
*tremolo	*	*	*	*8va	*	*	*	*	*	*	*	*	*	*	*	*	*	*	*	*
32FFF#/LLL	2e 2c# 2A#X 2E^^>\	.	2gg# 2ee 2cc# 2a#X^^>\	2ggg# 2eee 2ccc# 2aa#X^^>\	.	[>2F#\	.	.	[>2e\	.	.	[<2a#X/	.	.	(>2gg#\	daj	.	2ryy	.	.
32FF#/	.	.	.	.	.	.	.	.	.	.	.	.	.	.	.	.	.	.	.	.
32FFF#/	.	.	.	.	.	.	.	.	.	.	.	.	.	.	.	.	.	.	.	.
32FF#/	.	.	.	.	.	.	.	.	.	.	.	.	.	.	.	.	.	.	.	.
32FFF#/	.	.	.	.	.	.	.	.	.	.	.	.	.	.	.	.	.	.	.	.
32FF#/	.	.	.	.	.	.	.	.	.	.	.	.	.	.	.	.	.	.	.	.
32FFF#/	.	.	.	.	.	.	.	.	.	.	.	.	.	.	.	.	.	.	.	.
32FF#/	.	.	.	.	.	.	.	.	.	.	.	.	.	.	.	.	.	.	.	.
32FFF#/	.	.	.	.	.	.	.	.	.	.	.	.	.	.	.	.	.	.	.	.
32FF#/	.	.	.	.	.	.	.	.	.	.	.	.	.	.	.	.	.	.	.	.
32FFF#/	.	.	.	.	.	.	.	.	.	.	.	.	.	.	.	.	.	.	.	.
32FF#/	.	.	.	.	.	.	.	.	.	.	.	.	.	.	.	.	.	.	.	.
32FFF#/	.	.	.	.	.	.	.	.	.	.	.	.	.	.	.	.	.	.	.	.
32FF#/	.	.	.	.	.	.	.	.	.	.	.	.	.	.	.	.	.	.	.	.
32FFF#/	.	.	.	.	.	.	.	.	.	.	.	.	.	.	.	.	.	.	.	.
32FF#/JJJ	.	.	.	.	.	.	.	.	.	.	.	.	.	.	.	.	.	.	.	.
*	*	*	*	*X8va	*	*	*	*	*	*	*	*	*	*	*	*	*	*	*	*
=88	=88	=88	=88	=88	=88	=88	=88	=88	=88	=88	=88	=88	=88	=88	=88	=88	=88	=88	=88	=88
32FFF#/LLL	[>2e [>2c# [<2A#X [<2E^^>\	.	[>2cc# [<2a#X^^>/	[>2ccc# [>2aa#X [<2ee^^>\	.	2F#\_>	.	.	2e\_>	.	.	2a#/_<	.	.	[>2cc#\)	.	.	2ryy	.	.
32FF#/	.	.	.	.	.	.	.	.	.	.	.	.	.	.	.	.	.	.	.	.
32FFF#/	.	.	.	.	.	.	.	.	.	.	.	.	.	.	.	.	.	.	.	.
32FF#/	.	.	.	.	.	.	.	.	.	.	.	.	.	.	.	.	.	.	.	.
32FFF#/	.	.	.	.	.	.	.	.	.	.	.	.	.	.	.	.	.	.	.	.
32FF#/	.	.	.	.	.	.	.	.	.	.	.	.	.	.	.	.	.	.	.	.
32FFF#/	.	.	.	.	.	.	.	.	.	.	.	.	.	.	.	.	.	.	.	.
32FF#/	.	.	.	.	.	.	.	.	.	.	.	.	.	.	.	.	.	.	.	.
32FFF#/	.	.	.	.	.	.	.	.	.	.	.	.	.	.	.	.	.	.	.	.
32FF#/	.	.	.	.	.	.	.	.	.	.	.	.	.	.	.	.	.	.	.	.
32FFF#/	.	.	.	.	.	.	.	.	.	.	.	.	.	.	.	.	.	.	.	.
32FF#/	.	.	.	.	.	.	.	.	.	.	.	.	.	.	.	.	.	.	.	.
32FFF#/	.	.	.	.	.	.	.	.	.	.	.	.	.	.	.	.	.	.	.	.
32FF#/	.	.	.	.	.	.	.	.	.	.	.	.	.	.	.	.	.	.	.	.
32FFF#/	.	.	.	.	.	.	.	.	.	.	.	.	.	.	.	.	.	.	.	.
32FF#/JJJ	.	.	.	.	.	.	.	.	.	.	.	.	.	.	.	.	.	.	.	.
*Xtremolo	*	*	*	*	*	*	*	*	*	*	*	*	*	*	*	*	*	*	*	*
=89	=89	=89	=89	=89	=89	=89	=89	=89	=89	=89	=89	=89	=89	=89	=89	=89	=89	=89	=89	=89
4FFF#/	4e] 4c#] 4A#] 4E\]	.	4cc#] 4a#/]	4ccc#] 4aa#] 4ee\]	.	4F#\]	.	.	4e\]	.	.	4a#/]	.	.	4cc#\]	.	.	2ryy	.	.
8r;>	8r;>	.	8r;>	8r;>	.	8r;>	.	.	8r;>	.	.	8r;>	.	.	8r;>	.	.	.	.	.
8BB 8BBB/	8e 8c# 8An 8E\	.	8cc# 8an/	8ccc# 8aan\	.	8BB/	.	.	8e\	.	.	8an/	.	.	8cc#\	daj	.	.	.	.
=90	=90	=90	=90	=90	=90	=90	=90	=90	=90	=90	=90	=90	=90	=90	=90	=90	=90	=90	=90	=90
!	!	!	!	!	!	!	!	!	!	!	!	!LO:TX:b:i:t=rallent	!	!	!LO:TX:a:i:t=rall	!	!	!	!	!
4BB 4BBB/	8.c#L 8.A 8.E\	.	8.eeL 8.a\	8.eeeL 8.aa\	.	8.BB/	.	.	8.c#\	.	.	8.a/	.	.	8.ee\	Prze-	.	2ryy	.	.
!	!LO:TX:b:i:t=rallent	!	!	!LO:TX:b:i:t=rallent	!	!LO:TX:b:i:t=rallent	!	!	!LO:TX:b:t=rallent	!	!	!	!	!	!	!	!	!	!	!
.	16B\Jk	.	16dd#\Jk	16ddd#\Jk	.	16BB/	.	.	16B\	.	.	16a/	.	.	16dd#\	-żyć	.	.	.	.
8BBL 8BBB/	8eL 8c# 8A\	.	8cc#\L	8ccc#\L	.	8BB/	.	.	8A/	.	.	8e/	.	.	8cc#\	la-	.	.	.	.
8BBJ 8BBB/	8f#J 8d# 8A\	.	8dd#\J	8ddd#\J	.	8BB/	.	.	8A/	.	.	8f#/	.	.	8dd#\	-tek	.	.	.	.
=91||	=91||	=91||	=91||	=91||	=91||	=91||	=91||	=91||	=91||	=91||	=91||	=91||	=91||	=91||	=91||	=91||	=91||	=91||	=91||	=91||
!	!LO:TX:a:i:t=Tempo Io	!	!	!LO:TX:a:i:t=Tempo Io	!	!	!	!	!	!	!	!	!	!	!LO:TX:a:i:t=Tempo Io	!	!	!	!	!
4BB 4EE^^>/	8eL 8G#\	f	4ee 4b 4g#^^>/	4eee 4bb 4gg#\^^>	.	4E\	.	.	4G#/	.	.	4e/	.	.	4ee\	sto!"	.	2ryy	.	.
!	!LO:TX:b:i:t=il basso tenuto	!	!	!	!	!	!	!	!	!	!	!	!	!	!	!	!	!	!	!
.	8eJ 8B 8G#\	.	.	.	.	.	.	.	.	.	.	.	.	.	.	.	.	.	.	.
4BB 4EE^^>/	8r	.	4r	4r	.	4r	.	.	4r	.	.	4r	.	.	4r	.	.	.	.	.
.	8e 8B 8G#\	.	.	.	.	.	.	.	.	.	.	.	.	.	.	.	.	.	.	.
!!LO:PB:g=original
=92	=92	=92	=92	=92	=92	=92	=92	=92	=92	=92	=92	=92	=92	=92	=92	=92	=92	=92	=92	=92
4BB 4EE^^>/	8r	.	2r	2r	.	2r	.	.	2r	.	.	2r	.	.	2r	.	.	2ryy	.	.
.	8e 8B 8G#\	.	.	.	.	.	.	.	.	.	.	.	.	.	.	.	.	.	.	.
4BB 4EE^^>/	8r	.	.	.	.	.	.	.	.	.	.	.	.	.	.	.	.	.	.	.
.	8e 8B 8G#\	.	.	.	.	.	.	.	.	.	.	.	.	.	.	.	.	.	.	.
=93	=93	=93	=93	=93	=93	=93	=93	=93	=93	=93	=93	=93	=93	=93	=93	=93	=93	=93	=93	=93
!	!	!	!	!	!	!	!	!	!	!	!LO:DY:a:rj	!	!	!	!	!	!LO:DY:a:rj	!	!	!
4BB 4EE^^>/	8r	.	8.cc#^>\L	8.ccc#^>\L	f	2r	.	.	8.c#\	Po-	f	2r	.	.	8.cc#\	Po-	f	2ryy	.	.
.	8e 8A#X 8F#\	.	.	.	.	.	.	.	.	.	.	.	.	.	.	.	.	.	.	.
.	.	.	16b'\Jk	16bb'\Jk	.	.	.	.	16B\	-chwy-	.	.	.	.	16b\	-chwy-	.	.	.	.
4BB 4EE^^>/	8r	.	8a#X'/L	8aa#X'\L	.	.	.	.	8A#X/	-ci-	.	.	.	.	8a#X/	-ci-	.	.	.	.
.	8e 8A# 8F#\	.	8a#'/J	8aa#'\J	.	.	.	.	8A#/	-ły	.	.	.	.	8a#/	-ły	.	.	.	.
=94	=94	=94	=94	=94	=94	=94	=94	=94	=94	=94	=94	=94	=94	=94	=94	=94	=94	=94	=94	=94
4BB 4EE^^>/	8r	.	8g#'/L	8gg#'\L	.	2r	.	.	8G#/	skrzy-	.	2r	.	.	8g#/	skrzy-	.	2ryy	.	.
.	8e 8B 8G#\	.	8b'/J	8bb'\J	.	.	.	.	8B/	-pki,	.	.	.	.	8b/	-pki,	.	.	.	.
4BB 4EE^^>/	8r	.	4b 4g#^^>/	4ee^^>\	.	.	.	.	4E/	bas,	.	.	.	.	4e/	bas,	.	.	.	.
.	8e 8B 8G#\	.	.	.	.	.	.	.	.	.	.	.	.	.	.	.	.	.	.	.
=95	=95	=95	=95	=95	=95	=95	=95	=95	=95	=95	=95	=95	=95	=95	=95	=95	=95	=95	=95	=95
4BB 4EE^^>/	8r	.	8.f#^>/L	8.ff#^>\L	.	2r	.	.	8.F#/	Huk-	.	2r	.	.	8.f#/	Huk-	.	2ryy	.	.
.	8e 8A#X 8F#\	.	.	.	.	.	.	.	.	.	.	.	.	.	.	.	.	.	.	.
.	.	.	16a#X'/Jk	16aa#X'\Jk	.	.	.	.	16A#X/	-nął	.	.	.	.	16a#X/	-nął	.	.	.	.
4BB 4EE^^>/	8r	.	8cc#'\L	8ccc#'\L	.	.	.	.	8c#\	chór	.	.	.	.	8cc#\	chór	.	.	.	.
.	8e 8A# 8F#\	.	8dd#'\J	8ddd#'\J	.	.	.	.	8d#\	jak	.	.	.	.	8dd#\	jak	.	.	.	.
=96	=96	=96	=96	=96	=96	=96	=96	=96	=96	=96	=96	=96	=96	=96	=96	=96	=96	=96	=96	=96
4BB 4EE^^>/	8r	.	8b'\L	8bb'\L	.	2r	.	.	8B\	je-	.	2r	.	.	8b\	je-	.	2ryy	.	.
.	8e 8B 8G#\	.	8b'\J	8bb'\J	.	.	.	.	8B\	-den	.	.	.	.	8b\	-den	.	.	.	.
4GGn 4CCn^^>/	8r	.	4ee 4ccn 4gn^^>\	4eee 4cccn 4ggn^^>\	.	.	.	.	4e\	człek:	.	.	.	.	4ee\	człek:	.	.	.	.
.	8e 8cn 8Gn 8E\	.	.	.	.	.	.	.	.	.	.	.	.	.	.	.	.	.	.	.
=97	=97	=97	=97	=97	=97	=97	=97	=97	=97	=97	=97	=97	=97	=97	=97	=97	=97	=97	=97	=97
!	!	!	!	!	!	!	!	!LO:DY:a:rj	!	!	!	!	!	!LO:DY:b:rj	!	!	!	!	!	!
4GGn 4CCn^^>/	8r	.	8.a^>/L	2r	.	8.A\	Po-	f	2r	.	.	8.a/	Po-	f	2r	.	.	2ryy	.	.
.	8e 8cn 8Gn 8E\	.	.	.	.	.	.	.	.	.	.	.	.	.	.	.	.	.	.	.
.	.	.	16gn'/Jk	.	.	16Gn\	-chwy-	.	.	.	.	16gn/	-chwy-	.	.	.	.	.	.	.
4GG 4CC^^>/	8r	.	8f#X'/L	.	.	8F#X\	-ci-	.	.	.	.	8f#X/	-ci-	.	.	.	.	.	.	.
.	8d# 8c 8F#X 8Dn\	.	8f#'/J	.	.	8F#\	-ły	.	.	.	.	8f#/	-ły	.	.	.	.	.	.	.
!!LO:LB:g=original
=98	=98	=98	=98	=98	=98	=98	=98	=98	=98	=98	=98	=98	=98	=98	=98	=98	=98	=98	=98	=98
4GGn 4CCn^^>/	8r	.	8e'/L	2r	.	8E\	skrzy-	.	2r	.	.	8e/	skrzy-	.	2r	.	.	2ryy	.	.
.	8Gn 8E 8Cn\	.	8gn'/J	.	.	8Gn\	-pki,	.	.	.	.	8gn/	-pki,	.	.	.	.	.	.	.
4GG 4CC^^>/	8r	.	4cn^^>/	.	.	4Cn/	bas,	.	.	.	.	4cn/	bas,	.	.	.	.	.	.	.
.	8G 8E 8C\	.	.	.	.	.	.	.	.	.	.	.	.	.	.	.	.	.	.	.
=99	=99	=99	=99	=99	=99	=99	=99	=99	=99	=99	=99	=99	=99	=99	=99	=99	=99	=99	=99	=99
4GGn 4CCn^^>/	8r	.	8.dn^>/L	2r	.	8.Dn\	Huk-	.	2r	.	.	8.dn/	Huk-	.	2r	.	.	2ryy	.	.
.	8cn 8F#X 8Dn\	.	.	.	.	.	.	.	.	.	.	.	.	.	.	.	.	.	.	.
.	.	.	16f#X'/Jk	.	.	16F#X\	-nął	.	.	.	.	16f#X/	-nął	.	.	.	.	.	.	.
4GG 4CC^^>/	8r	.	8a'/L	.	.	8A\	chór	.	.	.	.	8a/	chór	.	.	.	.	.	.	.
.	8dn 8c 8F# 8D\	.	8b'/J	.	.	8B\	jak	.	.	.	.	8b/	jak	.	.	.	.	.	.	.
=100	=100	=100	=100	=100	=100	=100	=100	=100	=100	=100	=100	=100	=100	=100	=100	=100	=100	=100	=100	=100
4GGn 4CCn^^>/	8r	.	8gn'/L	2r	.	8Gn\	je-	.	2r	.	.	8gn/	je-	.	2r	.	.	2ryy	.	.
.	8e 8cn 8Gn 8E\	.	8g'/J	.	.	8G\	-den	.	.	.	.	8g/	-den	.	.	.	.	.	.	.
4GG 4CC^^>/	8r	.	4ccn^^>\	.	.	4cn\	człek:	.	.	.	.	4ccn\	człek:	.	.	.	.	.	.	.
.	8e 8c 8G 8E\	.	.	.	.	.	.	.	.	.	.	.	.	.	.	.	.	.	.	.
=101	=101	=101	=101	=101	=101	=101	=101	=101	=101	=101	=101	=101	=101	=101	=101	=101	=101	=101	=101	=101
*	*	*	*	*8va	*	*	*	*	*	*	*	*	*	*	*	*	*	*	*	*
!	!	!	!	!	!	!	!	!	!	!	!LO:DY:b:rj	!	!	!	!	!	!LO:DY:a:rj	!	!	!
4AA 4AAA^^>/	4e 4cn 4A 4E^^\	.	8.eeL 8.ccn^>\	8.eeeL 8.cccn^>\	.	8.A\	.	.	8.A/	.	f	8.ccn\	.	.	8.ee\	Huk-	f	2ryy	.	.
.	.	.	16ddnJk 16b'\	16dddnJk 16bb'\	.	16A\	.	.	16B/	.	.	16b\	.	.	16ddn\	-nął	.	.	.	.
8r	8r	.	8ccL 8a'\	8cccL 8aa'\	.	8A\	.	.	8cn\	.	.	8a/	.	.	8ccn\	chór	.	.	.	.
8FF# 8FFF#/	8e 8cn 8A\	.	8eeJ 8a'\	8eeeJ 8ccc'\	.	8F#\	.	.	8c\	.	.	8a/	.	.	8ee\	jak	.	.	.	.
=102	=102	=102	=102	=102	=102	=102	=102	=102	=102	=102	=102	=102	=102	=102	=102	=102	=102	=102	=102	=102
4BB 4BBB/	4d#X 4B 4F#\	.	8dd#XL 8b\	8ddd#XL 8bb\	.	4B\	.	.	4B\	.	.	4f#/	.	.	4dd#X\	je-	.	2ryy	.	.
.	.	.	(>16dd#\L	(>16ddd#\L	.	.	.	.	.	.	.	.	.	.	.	.	.	.	.	.
.	.	.	16ee\JJ	16eee\JJ	.	.	.	.	.	.	.	.	.	.	.	.	.	.	.	.
4r	4r	.	8ff#\L)	8fff#\L)	.	4BB/	.	.	4d#\	.	.	4f#/	.	.	4b\	-den	.	.	.	.
.	.	.	(>16dd#\L	(>16ddd#\L	.	.	.	.	.	.	.	.	.	.	.	.	.	.	.	.
.	.	.	16cc#X\JJ	16ccc#X\JJ	.	.	.	.	.	.	.	.	.	.	.	.	.	.	.	.
=103	=103	=103	=103	=103	=103	=103	=103	=103	=103	=103	=103	=103	=103	=103	=103	=103	=103	=103	=103	=103
[>2BB [<2BBB/	(>4d# 4A 4F#\	.	8b\L)	8bb\L)	.	[<2BB/	.	.	(>4d#\	.	.	(<4a/	.	.	(>4ff#X\	człek:	.	2ryy	.	.
.	.	.	(>16dd#\L	(>16ddd#\L	.	.	.	.	.	.	.	.	.	.	.	.	.	.	.	.
.	.	.	16cc#\JJ	16ccc#\JJ	.	.	.	.	.	.	.	.	.	.	.	.	.	.	.	.
.	4e 4G#X\	.	8b\L)	8bb\L)	.	.	.	.	4e\	.	.	4g#X/	.	.	4ee\	.	.	.	.	.
.	.	.	(>16ee\L	(>16eee\L	.	.	.	.	.	.	.	.	.	.	.	.	.	.	.	.
.	.	.	16cc#\JJ	16ccc#\JJ	.	.	.	.	.	.	.	.	.	.	.	.	.	.	.	.
!!LO:PB:g=original
=104	=104	=104	=104	=104	=104	=104	=104	=104	=104	=104	=104	=104	=104	=104	=104	=104	=104	=104	=104	=104
!	!LO:TX:b:i:t=rall.	!	!	!	!	!LO:TX:b:t=rall	!	!	!LO:TX:b:i:t=rall	!	!	!LO:TX:b:t=rall	!	!	!LO:TX:b:t=rall	!	!	!	!	!
!	!	!	!	!	!	!	!	!LO:HP:a	!	!	!	!	!	!LO:HP:a	!	!	!	!	!	!
2BB] 2BBB/]	4f# 4d# 4A\	>	8a\L)	8aa\L)	.	2BB/]	.	>]	4d#\	.	.	2a/)	.	>]	4dd#\	.	.	2ryy	.	.
!	!	!	!	!LO:TX:b:i:t=rall.	!	!	!	!	!	!	!	!	!	!	!	!	!	!	!	!
.	.	.	(>16ff#\L	(>16fff#\L	.	.	.	.	.	.	.	.	.	.	.	.	.	.	.	.
.	.	.	16dd#\JJ	16ddd#\JJ	.	.	.	.	.	.	.	.	.	.	.	.	.	.	.	.
!	!	!	!	!	!	!	!	!	!	!	!LO:HP:b	!	!	!	!	!	!LO:HP:b	!	!	!
.	4c# 4A 4D#\)	]	8cc#\L)	8ccc#\L)	>	.	.	.	4c#\)	.	>]	.	.	.	4cc#\)	.	>]	.	.	.
.	.	.	(>16a\L	(>16aa\L	.	.	.	.	.	.	.	.	.	.	.	.	.	.	.	.
.	.	.	16cc#\JJ)	16ccc#\JJ)	]]	.	.	.	.	.	.	.	.	.	.	.	.	.	.	.
=105||	=105||	=105||	=105||	=105||	=105||	=105||	=105||	=105||	=105||	=105||	=105||	=105||	=105||	=105||	=105||	=105||	=105||	=105||	=105||	=105||
!	!LO:TX:a:i:t=Poco meno mosso.	!	!	!LO:TX:a:i:t=Poco meno mosso	!	!	!	!	!	!	!	!	!	!	!LO:TX:a:i:t=Poco meno mosso	!	!LO:DY:b:rj	!	!	!
!	!	!	!	!	!	!	!	!LO:DY:b:rj	!	!	!LO:DY:b:rj	!	!	!LO:DY:b:rj	!	!	!	!	!	!
(<4EE/	8BL 8Gn 8E\	p	8.bL 8.gn/	8.bbL 8.ggn/	p	8.E\	.	p	8.e\	.	p	8.gn/	.	p	8.b/	Szczęść	p	2ryy	.	.
.	(>16e\L	.	.	.	.	.	.	.	.	.	.	.	.	.	.	.	.	.	.	.
.	16B\JJ	.	(<16a#XJk 16f#/	(<16aa#XJk 16ff#/	.	16E\	.	.	16B\	.	.	16f#/	.	.	16a#X/	wam,	.	.	.	.
4E-X 4EE-X/)	16G\LL	.	8bL 8g/)	8bbL 8gg/)	.	8E-X\	.	.	8B\	.	.	8g/	.	.	8b/	Bo-	.	.	.	.
.	16B\	.	.	.	.	.	.	.	.	.	.	.	.	.	.	.	.	.	.	.
.	16G\	.	8bJ 8g/	8bbJ 8gg/	.	8E-\	.	.	8B\	.	.	8g/	.	.	8b/	-że,	.	.	.	.
.	16B\JJ)	.	.	.	.	.	.	.	.	.	.	.	.	.	.	.	.	.	.	.
=106	=106	=106	=106	=106	=106	=106	=106	=106	=106	=106	=106	=106	=106	=106	=106	=106	=106	=106	=106	=106
2Dn 2DDn/	(>16Gn\LL	.	(>8ddnL 8b\	(>8dddnL 8bb\	.	8Dn\	.	.	8B\	.	.	8b\	.	.	8ddn\	w dłu-	.	2ryy	.	.
.	16B\	.	.	.	.	.	.	.	.	.	.	.	.	.	.	.	.	.	.	.
.	16gn\	.	8eeJ 8ccn\	8eeeJ 8cccn\	.	8D\	.	.	8B\	.	.	8ccn\	.	.	8ee\	-gi	.	.	.	.
.	16B\JJ	.	.	.	.	.	.	.	.	.	.	.	.	.	.	.	.	.	.	.
.	16G\LL	.	4dd 4b\)	4ddd 4bb\)	.	4D\	.	.	4B\	.	.	4b\	.	.	4dd\	czas,	.	.	.	.
.	16B\	.	.	.	.	.	.	.	.	.	.	.	.	.	.	.	.	.	.	.
.	16dn\	.	.	.	.	.	.	.	.	.	.	.	.	.	.	.	.	.	.	.
.	16B\JJ)	.	.	.	.	.	.	.	.	.	.	.	.	.	.	.	.	.	.	.
=107	=107	=107	=107	=107	=107	=107	=107	=107	=107	=107	=107	=107	=107	=107	=107	=107	=107	=107	=107	=107
(<8.DnL 8.DDn/	(>16F#\LL	.	(<8.ccnL 8.a/	(<8.cccnL 8.aa/	.	8.Dn\	.	.	8.dn\	.	.	8.a/	.	.	8.ccn\	Daj	.	2ryy	.	.
.	16cn\	.	.	.	.	.	.	.	.	.	.	.	.	.	.	.	.	.	.	.
.	16e\	.	.	.	.	.	.	.	.	.	.	.	.	.	.	.	.	.	.	.
16EJk 16EE/	16dn\JJ	.	16bJk 16gn/)	16bbJk 16ggn/)	.	16E\	.	.	16d\	.	.	16gn/	.	.	16b\	wam,	.	.	.	.
*	*	*	*	*X8va	*	*	*	*	*	*	*	*	*	*	*	*	*	*	*	*
8F#L 8FF#/	16c\LL	.	(<8a/L	(>8aaL 8ddn\	.	8F#\	.	.	8cn\	.	.	8dn/	.	.	8a/	Bo-	.	.	.	.
.	16d\	.	.	.	.	.	.	.	.	.	.	.	.	.	.	.	.	.	.	.
8GnJ 8GGn/)	16B\	.	8g/J)	8ggJ 8dd\)	.	8Gn\	.	.	8B\	.	.	8d/	.	.	8gn/	-że,	.	.	.	.
.	16d\JJ	.	.	.	.	.	.	.	.	.	.	.	.	.	.	.	.	.	.	.
=108	=108	=108	=108	=108	=108	=108	=108	=108	=108	=108	=108	=108	=108	=108	=108	=108	=108	=108	=108	=108
*	*	*	*^	*^	*	*	*	*	*	*	*	*	*	*	*	*	*	*	*	*
!	!	!	!	!	!	!	!	!	!	!LO:HP:b	!	!	!LO:HP:b	!	!	!LO:HP:b	!	!	!LO:HP:a	!	!	!
(<8AL 8AA/	16cn\LL	.	4f#/	4ryy	8ff#L 8ddn\	4ryy	<	8A\	.	<	8cn\	.	<	8dn/	.	<	8f#/	szczęś-	<	2ryy	.	.
.	16dn\	<	.	.	.	.	.	.	.	.	.	.	.	.	.	.	.	.	.	.	.	.
8DnJ 8DDn/	16c\	.	.	.	8cccnJ 8aa 8ccn\	.	.	8Dn\	.	.	8A/	.	.	8f#/	.	.	8ccn\	-cia	.	.	.	.
.	16A\JJ	.	.	.	.	.	.	.	.	.	.	.	.	.	.	.	.	.	.	.	.	.
4D#X 4DD#X/)	16B\LL	.	(<8b/L	4f#\	(<8bb/L	4ff#\	.	4D#X\	.	[	4B\	.	[[	4f#/	.	[	(<8b/L	wiek!	[	.	.	.
.	16A\	[[	.	.	.	.	.	.	.	.	.	.	.	.	.	.	.	.	.	.	.	.
.	16F#\	.	8a/J)	.	8aa/J)	.	[	.	.	.	.	.	.	.	.	.	8a/J)	.	.	.	.	.
.	16B\JJ)	.	.	.	.	.	.	.	.	.	.	.	.	.	.	.	.	.	.	.	.	.
*	*	*	*v	*v	*	*	*	*	*	*	*	*	*	*	*	*	*	*	*	*	*	*
*	*	*	*	*v	*v	*	*	*	*	*	*	*	*	*	*	*	*	*	*	*	*
!!LO:LB:g=original
=109	=109	=109	=109	=109	=109	=109	=109	=109	=109	=109	=109	=109	=109	=109	=109	=109	=109	=109	=109	=109
!	!	!	!	!	!	!	!	!LO:DY:a:rj	!	!	!LO:DY:a:rj	!	!	!LO:DY:b	!	!	!LO:DY:a:rj	!	!	!
2E 2EE/	(>16B\LL	mf	8.g#XL 8.e/	8.gg#XL 8.ee\	mf	8.E\	.	mf	8.B\	.	mf	8.e/	.	mf	8.g#X/	Szczęść	mf	2ryy	.	.
.	16c#X\	.	.	.	.	.	.	.	.	.	.	.	.	.	.	.	.	.	.	.
.	16B\	.	.	.	.	.	.	.	.	.	.	.	.	.	.	.	.	.	.	.
.	16A\JJ	.	(<16f#Jk 16d#X/	(>16ff#Jk 16dd#X\	.	16E\	.	.	16B\	.	.	16d#/	.	.	16f#/	wam,	.	.	.	.
.	16G#\LL	.	8g#L 8e/)	8gg#L 8ee\)	.	8E\	.	.	8B\	.	.	8e/	.	.	8g#/	Bo-	.	.	.	.
.	16B\	.	.	.	.	.	.	.	.	.	.	.	.	.	.	.	.	.	.	.
.	16c#\	.	8aJ 8f#/	8aaJ 8ff#\	<	8E\	.	.	8B\	.	.	8f#/	.	.	8a/	-że,	.	.	.	.
.	16B\JJ)	.	.	.	.	.	.	.	.	.	.	.	.	.	.	.	.	.	.	.
=110	=110	=110	=110	=110	=110	=110	=110	=110	=110	=110	=110	=110	=110	=110	=110	=110	=110	=110	=110	=110
4EE 4EEE/	(>16e\LL	.	(>8bL 8g#\	(>8bbL 8gg#\	.	8E\	.	.	8e\	.	.	8g#/	.	.	8b\	w dłu-	.	2ryy	.	.
.	16d#\	.	.	.	.	.	.	.	.	.	.	.	.	.	.	.	.	.	.	.
.	16e\	.	8gg#J 8b\)	8ggg#J 8bb\)	.	8E\	.	.	8e\	.	.	8b/	.	.	8gg#\	-gi	.	.	.	.
.	16G#\JJ	.	.	.	.	.	.	.	.	.	.	.	.	.	.	.	.	.	.	.
8FF#L (<8FFF#/	16c#\LL	.	(>8ff#L 8a#X\	(>8fff#L 8aa#X\	[	(>8F#\L	.	.	(>8c#\L	.	.	(<8a#X/L	.	.	(>8ff#\L	czas,	.	.	.	.
.	16d#\	.	.	.	.	.	.	.	.	.	.	.	.	.	.	.	.	.	.	.
8AA#XJ 8AAA#X/)	16c#\	.	8eeJ 8cc#\)	8eeeJ 8ccc#\)	.	8A#X\J)	.	.	8f#\J)	.	.	8cc#/J)	.	.	8ee\J)	.	.	.	.	.
.	16F#\JJ)	.	.	.	.	.	.	.	.	.	.	.	.	.	.	.	.	.	.	.
=111	=111	=111	=111	=111	=111	=111	=111	=111	=111	=111	=111	=111	=111	=111	=111	=111	=111	=111	=111	=111
2BB 2BBB/	(>16f#\LL	.	(>8dd#L 8b\	(>8ddd#L 8bb\	.	8B\	.	.	8f#\	.	.	8b/	.	.	8dd#\	Daj	.	2ryy	.	.
.	16B\	.	.	.	.	.	.	.	.	.	.	.	.	.	.	.	.	.	.	.
.	16d#\	.	8ff#J 8an\)	8fff#J 8aan\)	.	8B\	.	.	8d#\	.	.	8an/	.	.	8ff#\	wam,	.	.	.	.
.	16c#\JJ	.	.	.	.	.	.	.	.	.	.	.	.	.	.	.	.	.	.	.
.	16d#\LL	.	(<8bL 8a/	(>8bbL 8aa\	.	8B\	.	.	8d#\	.	.	8a/	.	.	8b\	Bo-	.	.	.	.
.	16c#\	.	.	.	.	.	.	.	.	.	.	.	.	.	.	.	.	.	.	.
.	16B\	.	8eeJ 8g#/)	8eeeJ 8gg#\)	.	8BB/	.	.	8e\	.	.	8g#/	.	.	8ee\	-że,	.	.	.	.
.	16e\JJ)	.	.	.	.	.	.	.	.	.	.	.	.	.	.	.	.	.	.	.
=112	=112	=112	=112	=112	=112	=112	=112	=112	=112	=112	=112	=112	=112	=112	=112	=112	=112	=112	=112	=112
!	!	!	!	!	!	!	!	!LO:HP:b	!	!	!LO:HP:b	!	!	!LO:HP:b	!	!	!LO:HP:a	!	!	!
2BB 2BBB/	(>16A\LL	>	(<8dd#L 8e/	(>8ddd#L 8ee\	>	4BB/	.	>	4A/	.	>	(<8e/L	.	>	(>8dd#\L	szczęś-	>	2ryy	.	.
.	16B\	.	.	.	.	.	.	.	.	.	.	.	.	.	.	.	.	.	.	.
.	16c#\	.	8cc#J 8a/)	8ccc#J 8aa\)	.	.	.	.	.	.	.	8a/J)	.	.	8cc#\J)	.	.	.	.	.
.	16d#\JJ	.	.	.	.	.	.	.	.	.	.	.	.	.	.	.	.	.	.	.
.	16c#\LL	.	(<8b/L	(>8bbL 8cc#\	.	4BB/	.	]]	4F#/	.	.	(<8c#/L	.	.	(<8b/L	-cia	]	.	.	.
.	16F#\	.	.	.	.	.	.	.	.	.	.	.	.	.	.	.	.	.	.	.
.	16e\	.	8a/J)	8aaJ 8ee\)	]]	.	.	.	.	.	.	8e/J)	.	]]	8a/J)	.	.	.	.	.
.	16F#\JJ)	]]	.	.	.	.	.	.	.	.	]	.	.	.	.	.	.	.	.	.
=113||	=113||	=113||	=113||	=113||	=113||	=113||	=113||	=113||	=113||	=113||	=113||	=113||	=113||	=113||	=113||	=113||	=113||	=113||	=113||	=113||
!	!	!	!	!LO:TX:a:i:t=Tempo Io	!	!	!	!	!	!	!	!	!	!	!LO:TX:a:i:t=Tempo Io	!	!	!	!	!
8BB 8BBB/	8d# 8F#\	.	4b\	4bb 4dd#\	p	4BB/	.	.	4F#/	.	.	4d#/	.	.	4b\	wiek!"	.	2ryy	.	.
!	!LO:TX:a:i:t=Tempo Io	!	!	!	!	!	!	!	!	!	!	!	!	!	!	!	!	!	!	!
8r	16r	p	.	.	.	.	.	.	.	.	.	.	.	.	.	.	.	.	.	.
.	16C#'/	.	.	.	.	.	.	.	.	.	.	.	.	.	.	.	.	.	.	.
4r	8C#'/L	.	4r	4r	.	4r	.	.	4r	.	.	4r	.	.	4r	.	.	.	.	.
.	8D#'/J	.	.	.	.	.	.	.	.	.	.	.	.	.	.	.	.	.	.	.
=114	=114	=114	=114	=114	=114	=114	=114	=114	=114	=114	=114	=114	=114	=114	=114	=114	=114	=114	=114	=114
8BBB^</L	8D#^>\L	.	2r	(>16b\LL	p	2r	.	.	2r	.	.	2r	.	.	2r	.	.	2ryy	.	.
.	.	.	.	16cc#\	.	.	.	.	.	.	.	.	.	.	.	.	.	.	.	.
16r	16r	.	.	16b\	.	.	.	.	.	.	.	.	.	.	.	.	.	.	.	.
16CC#'/Jk	16E'\Jk	.	.	16cc#\JJ)	.	.	.	.	.	.	.	.	.	.	.	.	.	.	.	.
8CC#'/L	8E'\L	.	.	8b\	.	.	.	.	.	.	.	.	.	.	.	.	.	.	.	.
8DD#'/J	8F#'\J	.	.	8r	.	.	.	.	.	.	.	.	.	.	.	.	.	.	.	.
!!LO:PB:g=original
=115	=115	=115	=115	=115	=115	=115	=115	=115	=115	=115	=115	=115	=115	=115	=115	=115	=115	=115	=115	=115
8FF#'/L	8F#'\L	.	(<16B/LL	(>16b\LL	p	2r	.	.	2r	.	.	2r	.	.	2r	.	.	2ryy	.	.
.	.	.	16c#/	16cc#\	.	.	.	.	.	.	.	.	.	.	.	.	.	.	.	.
16r	16r	.	16B/	16b\	.	.	.	.	.	.	.	.	.	.	.	.	.	.	.	.
16GG#'/Jk	16G#'\Jk	.	16c#/JJ	16cc#\JJ	.	.	.	.	.	.	.	.	.	.	.	.	.	.	.	.
8AA'/L	8A'\L	.	16d#/LL	16dd#\LL	.	.	.	.	.	.	.	.	.	.	.	.	.	.	.	.
.	.	.	16e/	16ee\	.	.	.	.	.	.	.	.	.	.	.	.	.	.	.	.
8AA'/J	8AJ 8D#'\	.	16f#/	16ff#\	.	.	.	.	.	.	.	.	.	.	.	.	.	.	.	.
.	.	.	16d#/JJ	16dd#\JJ	.	.	.	.	.	.	.	.	.	.	.	.	.	.	.	.
=116	=116	=116	=116	=116	=116	=116	=116	=116	=116	=116	=116	=116	=116	=116	=116	=116	=116	=116	=116	=116
4BB 4BBB/	4A 4D#\	.	16c#/LL	16cc#\LL	<	2r	.	.	2r	.	.	2r	.	.	2r	.	.	2ryy	.	.
.	.	.	16d#/	16dd#\	.	.	.	.	.	.	.	.	.	.	.	.	.	.	.	.
.	.	<	16e/	16ee\	.	.	.	.	.	.	.	.	.	.	.	.	.	.	.	.
.	.	.	16f#/JJ	16ff#\JJ	.	.	.	.	.	.	.	.	.	.	.	.	.	.	.	.
4r	(>16G#\LL	.	16g#/LL	16gg#\LL	.	.	.	.	.	.	.	.	.	.	.	.	.	.	.	.
.	16A\	.	16a/	16aa\	.	.	.	.	.	.	.	.	.	.	.	.	.	.	.	.
.	16B\	.	16b/	16bb\	.	.	.	.	.	.	.	.	.	.	.	.	.	.	.	.
.	16c#\JJ)	.	16cc#/JJ)	16ccc#\JJ)	.	.	.	.	.	.	.	.	.	.	.	.	.	.	.	.
=117	=117	=117	=117	=117	=117	=117	=117	=117	=117	=117	=117	=117	=117	=117	=117	=117	=117	=117	=117	=117
8BBL 8EE'/	(>16d#LL 16G#\	mf	(>16dd#\LL	(>16ddd#\LL	mf	2r	.	.	2r	.	.	2r	.	.	2r	.	.	2ryy	.	.
.	16e\J	.	16ee\J	16eee\J	.	.	.	.	.	.	.	.	.	.	.	.	.	.	.	.
8BB 8EE'/	8c#J 8G#\)	.	8cc#\J)	8ccc#\J)	.	.	.	.	.	.	.	.	.	.	.	.	.	.	.	.
8BB 8EE'/	8c#L 8G#'\	.	8cc#'\L	8ccc#'\L	.	.	.	.	.	.	.	.	.	.	.	.	.	.	.	.
8BBJ 8EE'/	8c#J 8G#'\	.	8cc#'\J	8ccc#'\J	.	.	.	.	.	.	.	.	.	.	.	.	.	.	.	.
=118	=118	=118	=118	=118	=118	=118	=118	=118	=118	=118	=118	=118	=118	=118	=118	=118	=118	=118	=118	=118
8BBL 8EE'/	8BL 8G#'\	<	8b'\L	8bb'\L	<	2r	.	.	2r	.	.	2r	.	.	2r	.	.	2ryy	.	.
8BB 8EE'/	(>16c#L 16G#\	.	(>16cc#\L	(>16ccc#\L	.	.	.	.	.	.	.	.	.	.	.	.	.	.	.	.
.	16d#\JJ	.	16dd#\JJ	16ddd#\JJ	.	.	.	.	.	.	.	.	.	.	.	.	.	.	.	.
8BB 8EE'/	8eL 8G#\)	.	8ee\L)	8eee\L)	.	.	.	.	.	.	.	.	.	.	.	.	.	.	.	.
8BBJ 8EE'/	8eJ 8G#'\	[[	8ee'\J	8eee'\J	[[	.	.	.	.	.	.	.	.	.	.	.	.	.	.	.
=119	=119	=119	=119	=119	=119	=119	=119	=119	=119	=119	=119	=119	=119	=119	=119	=119	=119	=119	=119	=119
8BBL 8EE'/	(>16d#LL 16G#\	f	(>16dd#\LL	(>16ddd#\LL	f	2r	.	.	2r	.	.	2r	.	.	2r	.	.	2ryy	.	.
.	16e\J	.	16ee\J	16eee\J	.	.	.	.	.	.	.	.	.	.	.	.	.	.	.	.
8BB 8EE'/	8c#J 8G#\)	.	8cc#\J)	8ccc#\J)	.	.	.	.	.	.	.	.	.	.	.	.	.	.	.	.
8BB 8EE'/	8c#L 8G#'\	.	8cc#'\L	8ccc#'\L	.	.	.	.	.	.	.	.	.	.	.	.	.	.	.	.
8BBJ 8EE'/	8c#J 8G#'\	.	8cc#'\J	8ccc#'\J	.	.	.	.	.	.	.	.	.	.	.	.	.	.	.	.
=120	=120	=120	=120	=120	=120	=120	=120	=120	=120	=120	=120	=120	=120	=120	=120	=120	=120	=120	=120	=120
8BBL 8EE'/	8BL 8G#'\	.	8b'\L	8bb'\L	.	2r	.	.	2r	.	.	4r	.	.	2r	.	.	2ryy	.	.
8BB 8EE'/	(>16c#L 16G#\	.	(>16cc#\L	(>16ccc#\L	.	.	.	.	.	.	.	.	.	.	.	.	.	.	.	.
.	16d#\JJ	.	16dd#\JJ	16ddd#\JJ	.	.	.	.	.	.	.	.	.	.	.	.	.	.	.	.
8BB 8EE'/	8eL 8G#\)	.	8ee\)	8eee\)	.	.	.	.	.	.	.	8r	.	.	.	.	.	.	.	.
!	!	!	!	!	!	!	!	!	!	!	!	!	!	!LO:DY:a:rj	!	!	!	!	!	!
8BBJ 8EE'/	8eJ 8G#^^>\	.	8r	8r	.	.	.	.	.	.	.	8e/	Wy-	f	.	.	.	.	.	.
=121	=121	=121	=121	=121	=121	=121	=121	=121	=121	=121	=121	=121	=121	=121	=121	=121	=121	=121	=121	=121
8BBL 8EE'/	8.d#L 8.A^^>\	.	2r	2r	.	2r	.	.	2r	.	.	8.d#/	-pa-	.	2r	.	.	2ryy	.	.
8BB 8EE'/	.	.	.	.	.	.	.	.	.	.	.	.	.	.	.	.	.	.	.	.
.	16eJk 16A'\	.	.	.	.	.	.	.	.	.	.	16e/	-dło	.	.	.	.	.	.	.
8BB 8EE'/	8c#L 8A'\	.	.	.	.	.	.	.	.	.	.	8c#/	im	.	.	.	.	.	.	.
8BBJ 8EE'/	8d#J 8A'\	.	.	.	.	.	.	.	.	.	.	8d#/	we-	.	.	.	.	.	.	.
!!LO:LB:g=original
=122	=122	=122	=122	=122	=122	=122	=122	=122	=122	=122	=122	=122	=122	=122	=122	=122	=122	=122	=122	=122
8BBL 8EE'/	8BL 8G#'\	.	8r	2r	.	2r	.	.	2r	.	.	8B/	-se-	.	2r	.	.	2ryy	.	.
8BB 8EE'/	8BJ 8G#'\	.	4b^>\	.	f	.	.	.	.	.	.	4b^>\	-le	.	.	.	.	.	.	.
8BB 8EE'/	8d#L 8A'\	.	.	.	.	.	.	.	.	.	.	.	.	.	.	.	.	.	.	.
8BBJ 8EE'/	8d#J 8A'\	.	8a'/	.	.	.	.	.	.	.	.	8a/	Nim	.	.	.	.	.	.	.
=123	=123	=123	=123	=123	=123	=123	=123	=123	=123	=123	=123	=123	=123	=123	=123	=123	=123	=123	=123	=123
!	!	!	!	!	!	!	!	!	!	!	!	!	!	!	!	!	!LO:DY:a:rj	!	!	!
8BBL 8EE'/	8eL 8G#'\	.	8.g#^</L	8b\L	.	2r	.	.	2r	.	.	8.g#/	jesz-	.	8b\	Da-	f	2ryy	.	.
8BB 8EE'/	8e 8G#'\	.	.	8b\J	.	.	.	.	.	.	.	.	.	.	8b\	-naż	.	.	.	.
.	.	.	16a'/Jk	.	.	.	.	.	.	.	.	16a/	-cze	.	.	.	.	.	.	.
.	.	.	.	(<8qdd#/	.	.	.	.	.	.	.	.	.	.	8qdd#/	.	.	.	.	.
8BB 8EE'/	8d# 8A'\	.	8f#'/L	(>8.cc#\L)	.	.	.	.	.	.	.	8f#/	mi-	.	8.cc#\	mo-	.	.	.	.
8BBJ 8EE'/	8d#J 8A'\	.	8g#'/J	.	.	.	.	.	.	.	.	8g#/	-nął	.	.	.	.	.	.	.
.	.	.	.	16b\Jk)	.	.	.	.	.	.	.	.	.	.	16b\	-ja,	.	.	.	.
=124	=124	=124	=124	=124	=124	=124	=124	=124	=124	=124	=124	=124	=124	=124	=124	=124	=124	=124	=124	=124
8BBL 8EE'/	8BL 8G#'\	.	[<2e/	8ee\	.	2r	.	.	4r	.	.	[<2e/	rok.	.	8ee\	da-	.	2ryy	.	.
8BBJ 8EE'/	8BJ 8G#'\	.	.	4b^^\	.	.	.	.	.	.	.	.	.	.	4b\	-na	.	.	.	.
8AAL 8AAA'/	8c#L 8A 8E'\	.	.	.	.	.	.	.	8r	.	.	.	.	.	.	.	.	.	.	.
!	!	!	!	!	!	!	!	!	!	!	!LO:DY:a:rj	!	!	!	!	!	!	!	!	!
8AAJ 8AAA'^^>/	8AJ 8C#^^>\	.	.	8r	.	.	.	.	8A/	Wy-	f	.	.	.	8r	.	.	.	.	.
=125	=125	=125	=125	=125	=125	=125	=125	=125	=125	=125	=125	=125	=125	=125	=125	=125	=125	=125	=125	=125
4AA 4AAA^^>/	8.G#L 8.Dn^>\	.	2e/_<	2r	.	2r	.	.	8.G#/	-pa-	.	2e/_<	.	.	2r	.	.	2ryy	.	.
.	16A\Jk	.	.	.	.	.	.	.	16A/	-dło	.	.	.	.	.	.	.	.	.	.
8AAL 8AAA/	8F#L 8D'\	.	.	.	.	.	.	.	8F#/	im	.	.	.	.	.	.	.	.	.	.
8AAJ 8AAA/	8G#J 8D'\	.	.	.	.	.	.	.	8G#/	we-	.	.	.	.	.	.	.	.	.	.
=126	=126	=126	=126	=126	=126	=126	=126	=126	=126	=126	=126	=126	=126	=126	=126	=126	=126	=126	=126	=126
4AA 4AAA^^>/	8EL 8Dn'\	.	8e/]	8r	.	2r	.	.	8E/	-se-	.	4e/]	.	.	2r	.	.	2ryy	.	.
.	8G#J 8D'\	.	4e^^>/	4ee^^>\	.	.	.	.	4e^>\	-le	.	.	.	.	.	.	.	.	.	.
8AAL 8AAA/	8G#L 8D'\	.	.	.	.	.	.	.	.	.	.	4r	.	.	.	.	.	.	.	.
8AAJ 8AAA/	8G#J 8E 8BB'\	.	8dn/	8ddn\	.	.	.	.	8dn\	Nim	.	.	.	.	.	.	.	.	.	.
=127	=127	=127	=127	=127	=127	=127	=127	=127	=127	=127	=127	=127	=127	=127	=127	=127	=127	=127	=127	=127
!	!	!	!	!	!	!	!	!LO:DY:a:rj	!	!	!	!	!	!	!	!	!	!	!	!
4AA 4AAA^^>/	8EL 8C#^>\	.	8.c#^>/L	8.cc#^>\L	.	8E\	Da-	f	8.c#\	jesz-	.	2r	.	.	2r	.	.	2ryy	.	.
.	8E^>\J	.	.	.	.	8E\	-naż	.	.	.	.	.	.	.	.	.	.	.	.	.
.	.	.	16dn'/Jk	16ddn'\Jk	.	.	.	.	16dn\	-cze	.	.	.	.	.	.	.	.	.	.
.	(>8qG#/	.	.	.	.	(<8qG#/	.	.	.	.	.	.	.	.	.	.	.	.	.	.
8AAL 8AAA/	(>8.F#L 8.Dn\)	.	8B'/L	8b'\L	.	8.F#\)	mo-	.	8B\	mi-	.	.	.	.	.	.	.	.	.	.
8AAJ 8AAA/	.	.	8c#'/J	8cc#'\J	.	.	.	.	8c#\	-nął	.	.	.	.	.	.	.	.	.	.
.	16E\Jk)	.	.	.	.	16E\	-ja	.	.	.	.	.	.	.	.	.	.	.	.	.
!!LO:PB:g=original
=128	=128	=128	=128	=128	=128	=128	=128	=128	=128	=128	=128	=128	=128	=128	=128	=128	=128	=128	=128	=128
4AA 4AAA/	8AL 8C#'\	.	8e 8c#/	8a/	.	8A\	da-	.	4A/	rok.	.	2r	.	.	4r	.	.	2ryy	.	.
.	8A 8E 8C#'\	.	8r	8r	.	8E\	-na!	.	.	.	.	.	.	.	.	.	.	.	.	.
8CCn^^>/L	8Gn 8E 8Cn^^>\	.	8r	8r	.	[>4Gn\	da-	.	4r	.	.	.	.	.	8r	.	.	.	.	.
!	!	!	!	!	!	!	!	!	!	!	!	!	!	!	!	!	!LO:DY:b:rj	!	!	!
8CC/J	8GJ 8E 8C'\	.	8ccn^^>\	8cccn^^>\	f	.	.	.	.	.	.	.	.	.	8ccn\	Wy-	f	.	.	.
=129	=129	=129	=129	=129	=129	=129	=129	=129	=129	=129	=129	=129	=129	=129	=129	=129	=129	=129	=129	=129
4GGn 4CCn^^>/	8BL 8Fn 8Dn'\	.	8.b^^>\L	8.bb^^>\L	.	2G\_>	.	.	2r	.	.	2r	.	.	8.b\	-pad-	.	2ryy	.	.
.	8BJ 8F 8D'\	.	.	.	.	.	.	.	.	.	.	.	.	.	.	.	.	.	.	.
.	.	.	16ccn'\Jk	16cccn'\Jk	.	.	.	.	.	.	.	.	.	.	16ccn\	-ło	.	.	.	.
4GG 4CC^^>/	8r	.	8a'/L	8aa'\L	.	.	.	.	.	.	.	.	.	.	8a/	im	.	.	.	.
.	8B 8F 8D\	.	8b'/J	8bb'\J	.	.	.	.	.	.	.	.	.	.	8b\	we-	.	.	.	.
=130	=130	=130	=130	=130	=130	=130	=130	=130	=130	=130	=130	=130	=130	=130	=130	=130	=130	=130	=130	=130
4GGn 4CCn^^>/	8r	.	4gn/	8ggn'\	.	2G\]	.	.	2r	.	.	2r	.	.	8gn/	-se-	.	2ryy	.	.
.	8dn 8B 8Fn\	.	.	4gggn 4gg^>\	.	.	.	.	.	.	.	.	.	.	4ggn^>\	-le	.	.	.	.
4GG 4CC^^>/	8r	.	4r	.	.	.	.	.	.	.	.	.	.	.	.	.	.	.	.	.
.	8d 8B 8F\	.	.	8fffn 8ffn\	.	.	.	.	.	.	.	.	.	.	8ffn\	Nim	.	.	.	.
=131	=131	=131	=131	=131	=131	=131	=131	=131	=131	=131	=131	=131	=131	=131	=131	=131	=131	=131	=131	=131
!	!	!	!	!	!	!	!	!	!	!	!	!	!	!LO:DY:b:rj	!	!	!	!	!	!
4GGn 4CCn^^>/	8r	.	8gn/L	8.eeeL 8.ee^>\	.	4Gn\	-na	.	2r	.	.	8gn/	Da-	f	8.ee\	jesz-	.	2ryy	.	.
.	8cn 8Gn 8E\	.	8g/J	.	.	.	.	.	.	.	.	8g/	-naż	.	.	.	.	.	.	.
.	.	.	.	16fffnJk 16ffn\	.	.	.	.	.	.	.	.	.	.	16ffn\	-cze	.	.	.	.
.	.	.	(<8qb/	.	.	.	.	.	.	.	.	(<8qb	.	.	.	.	.	.	.	.
4GG 4CC^^>/	8r	.	8.a'/L)	8dddnL 8ddn\	.	4r	.	.	.	.	.	8.a/)	mo-	.	8ddn\	mi-	.	.	.	.
.	8B 8Fn 8Dn\	.	.	8eeeJ 8ee\	.	.	.	.	.	.	.	.	.	.	8ee\	-nął	.	.	.	.
.	.	.	16g'/Jk	.	.	.	.	.	.	.	.	16g/	-ja	.	.	.	.	.	.	.
=132	=132	=132	=132	=132	=132	=132	=132	=132	=132	=132	=132	=132	=132	=132	=132	=132	=132	=132	=132	=132
4GGn 4CCn^^>/	4cn 4Gn 4E^^>\	.	4ccn\	4cccn\	>	2r	.	.	2r	.	.	4ccn\	da-	.	4ccn\	rok	.	2ryy	.	.
!	!	!	!	!	!	!	!	!	!	!	!	!	!	!LO:HP:a	!	!	!	!	!	!
4r	4r	.	(<8b/L	4r	]]	.	.	.	.	.	.	(<8b/L	-na	>	4r	.	.	.	.	.
.	.	.	8a/J)	.	.	.	.	.	.	.	.	8a/J)	.	]]	.	.	.	.	.	.
=133	=133	=133	=133	=133	=133	=133	=133	=133	=133	=133	=133	=133	=133	=133	=133	=133	=133	=133	=133	=133
!	!	!	!	!	!	!	!	!	!	!	!	!	!	!LO:DY:a:rj	!	!	!	!	!	!
!	!	!LO:DY:rj	!	!	!	!	!	!	!	!	!LO:DY:a:rj	!	!	!	!	!	!	!	!	!
(2BB/	8Gn\L	mf	2gn/	(>16ddn\LL	p	2r	.	.	8Gn	.	mf	[<2gn/	da-	p	2r	.	.	2ryy	.	.
.	.	.	.	16ee\	.	.	.	.	.	.	.	.	.	.	.	.	.	.	.	.
.	8G\J	.	.	16dd\	.	.	.	.	8G	.	.	.	.	.	.	.	.	.	.	.
.	.	.	.	16ggn\JJ	.	.	.	.	.	.	.	.	.	.	.	.	.	.	.	.
.	(<8qB/	.	.	.	.	.	.	.	(<8qB	.	.	.	.	.	.	.	.	.	.	.
.	(>8.A\L)	.	.	8dd\)	.	.	.	.	8.A)	.	.	.	.	.	.	.	.	.	.	.
.	.	.	.	8r	.	.	.	.	.	.	.	.	.	.	.	.	.	.	.	.
.	16G\Jk)	.	.	.	.	.	.	.	16G	.	.	.	.	.	.	.	.	.	.	.
!!LO:LB:g=original
=134	=134	=134	=134	=134	=134	=134	=134	=134	=134	=134	=134	=134	=134	=134	=134	=134	=134	=134	=134	=134
!	!	!	!	!	!	!	!	!	!	!	!LO:HP:a	!	!	!	!	!	!	!	!	!
4Cn/)	(>4e\	.	(<4gn/	(>16ee\LL	.	2r	.	.	4e\	da-	>	4g/]	.	.	2r	.	.	2ryy	.	.
.	.	.	.	16ffn\	.	.	.	.	.	.	.	.	.	.	.	.	.	.	.	.
.	.	.	.	16ee\	.	.	.	.	.	.	.	.	.	.	.	.	.	.	.	.
.	.	.	.	16ggn\JJ	.	.	.	.	.	.	.	.	.	.	.	.	.	.	.	.
4r	8dn\L	.	8fn/L	8cccn\)	.	.	.	.	(>8dn\L	-na	]	(<8fn/L	-na	.	.	.	.	.	.	.
.	8cn\J)	.	8e/J)	8r	.	.	.	.	8cn\J)	.	.	8e/J)	.	.	.	.	.	.	.	.
=135	=135	=135	=135	=135	=135	=135	=135	=135	=135	=135	=135	=135	=135	=135	=135	=135	=135	=135	=135	=135
!	!	!	!	!	!	!	!	!	!	!	!LO:DY:a:rj	!	!	!	!	!	!LO:DY:a:rj	!	!	!
2r	(>4dn 4B\	.	8gn/L	8ggn\L	mf	2r	.	.	4B\	.	p	4dn/	Da-	.	8gn/	Da-	mf	2ryy	.	.
.	.	.	8g/J	8gg\J	.	.	.	.	.	.	.	.	.	.	8g/	-naż	.	.	.	.
.	.	.	(<8qb/	(<8qbb/	.	.	.	.	.	.	.	.	.	.	(<8qb	.	.	.	.	.
.	8eL 8cn\	.	(<8.a/L)	(>8.aa\L)	.	.	.	.	(>8cn\L	.	.	(<8e/L	-na,	.	8.a/)	mo-	.	.	.	.
.	8dJ 8B\)	.	.	.	.	.	.	.	8B\J)	.	.	8d/J)	.	.	.	.	.	.	.	.
.	.	.	16g/Jk)	16gg\Jk)	.	.	.	.	.	.	.	.	.	.	16g/	-ja	.	.	.	.
=136	=136	=136	=136	=136	=136	=136	=136	=136	=136	=136	=136	=136	=136	=136	=136	=136	=136	=136	=136	=136
!	!	!	!	!	!	!	!	!	!	!	!LO:HP:b	!	!	!LO:HP:b	!	!	!	!	!	!
4r	(>4cn 4A\	.	(>4ffn 4a\	(>4fffn\	.	2r	.	.	(>8A\L	.	<	(<8cn/L	da-	<	4ffn\	da-	.	2ryy	.	.
.	.	.	.	.	.	.	.	.	8cn\J)	.	.	8a/J)	.	.	.	.	.	.	.	.
8r	4B\)	.	8eeL 8gn\	8eee\L	.	.	.	.	4B\	.	[[	4gn/	-na	[[	(>8ee\L	-na,	.	.	.	.
8GGn^^>/	.	.	8ddn\J)	8dddn\J)	.	.	.	.	.	.	.	.	.	.	8dd#\J)	.	.	.	.	.
=137	=137	=137	=137	=137	=137	=137	=137	=137	=137	=137	=137	=137	=137	=137	=137	=137	=137	=137	=137	=137
!	!	!	!	!	!	!	!	!LO:DY:a:rj	!	!	!LO:DY:b:rj	!	!	!LO:DY:b	!	!	!	!	!	!
8EE'/L	8E'\L	f	2ccn 2gn^^>/	(>16cccn\LL	.	8E\	Da-	f	2cn\	.	mf	2gn/	.	mf	2ccn\	da-	.	2ryy	.	.
.	.	.	.	16bb\	.	.	.	.	.	.	.	.	.	.	.	.	.	.	.	.
8EE'/J	8E'\J	.	.	16ccc\	.	8E\	-naż	.	.	.	.	.	.	.	.	.	.	.	.	.
.	.	.	.	16gggn\JJ)	.	.	.	.	.	.	.	.	.	.	.	.	.	.	.	.
(<8qGGn/	(<8qGn/	.	.	.	.	(<8qGn/	.	.	.	.	.	.	.	.	.	.	.	.	.	.
(<8.FFn/L)	(>8.Fn\L)	.	.	8ggn^^>\	.	8.Fn\)	mo-	.	.	.	.	.	.	.	.	.	.	.	.	.
.	.	.	.	8r	.	.	.	.	.	.	.	.	.	.	.	.	.	.	.	.
16EE/Jk)	16E\Jk)	.	.	.	.	16E\	-ja,	.	.	.	.	.	.	.	.	.	.	.	.	.
=138	=138	=138	=138	=138	=138	=138	=138	=138	=138	=138	=138	=138	=138	=138	=138	=138	=138	=138	=138	=138
*rep	*rep	*	*	*	*	*	*	*	*	*	*	*	*	*	*	*	*	*	*	*
8EE'/L	8E'\L	>	2b 2gn 2cn^^>/	(>16bb\LL	.	8E\	da-	.	2cn\	.	.	2gn/	.	.	2b\	-na	.	2ryy	.	.
.	.	.	.	16aa\	.	.	.	.	.	.	.	.	.	.	.	.	.	.	.	.
8EE'/J	8E'\J	.	.	16bb\)	.	8E\	-naż	.	.	.	.	.	.	.	.	.	.	.	.	.
.	.	.	.	16gggn\JJ	.	.	.	.	.	.	.	.	.	.	.	.	.	.	.	.
(<8qGGn/	(<8qGn/	.	.	.	.	(<8qGn/	.	.	.	.	.	.	.	.	.	.	.	.	.	.
(<8.FFn/L)	(>8.Fn\L)	.	.	8ggn^^>\	.	8.Fn\)	mo-	.	.	.	.	.	.	.	.	.	.	.	.	.
.	.	.	.	8r	.	.	.	.	.	.	.	.	.	.	.	.	.	.	.	.
16EE/Jk)	16E\Jk)	]]	.	.	.	16E\	-ja,	.	.	.	.	.	.	.	.	.	.	.	.	.
*Xrep	*Xrep	*	*	*	*	*	*	*	*	*	*	*	*	*	*	*	*	*	*	*
=139	=139	=139	=139	=139	=139	=139	=139	=139	=139	=139	=139	=139	=139	=139	=139	=139	=139	=139	=139	=139
8DDn'/L	8Dn'\L	.	2b 2fn 2cn^^>/	(>16bb\LL	.	8Dn\	da-	.	(>2cn\	.	.	(<2fn/	.	.	2b\	da-	.	2ryy	.	.
.	.	.	.	16ffn\	.	.	.	.	.	.	.	.	.	.	.	.	.	.	.	.
8DD'/J	8D'\J	.	.	16bb\	.	8D\	-naż	.	.	.	.	.	.	.	.	.	.	.	.	.
.	.	.	.	16cccn\JJ	.	.	.	.	.	.	.	.	.	.	.	.	.	.	.	.
(<8qFFn/	(<8qFn/	.	.	.	.	(<8qFn/	.	.	.	.	.	.	.	.	.	.	.	.	.	.
(<8.EE/L)	(>8.E\L)	.	.	16bb\LL	.	8.E\)	mo-	.	.	.	.	.	.	.	.	.	.	.	.	.
.	.	.	.	16fffn\	.	.	.	.	.	.	.	.	.	.	.	.	.	.	.	.
.	.	.	.	16bb\	.	.	.	.	.	.	.	.	.	.	.	.	.	.	.	.
16DD/Jk)	16D\Jk)	.	.	16ff\JJ)	.	16D\	-ja	.	.	.	.	.	.	.	.	.	.	.	.	.
!!LO:PB:g=original
=140	=140	=140	=140	=140	=140	=140	=140	=140	=140	=140	=140	=140	=140	=140	=140	=140	=140	=140	=140	=140
(<8DD#X/L	(<8D#X/L	<	4.a 4.f#X 4.B/	(>16aa\LL	<	(<8D#X/L	da-	.	2B\)	.	.	4.f#X/	.	.	(<4.a/	.	.	2ryy	.	.
.	.	.	.	16gg#X\	.	.	.	.	.	.	.	.	.	.	.	.	.	.	.	.
8CC#X/	8C#X/	.	.	16ff#X\	.	8C#X/J)	.	.	.	.	.	.	.	.	.	.	.	.	.	.
.	.	.	.	16ee\JJ	.	.	.	.	.	.	.	.	.	.	.	.	.	.	.	.
8BBB/)	8BB/)	[	.	8dd#X\L)	.	8BB/	-na.	.	.	.	.	.	.	.	.	.	.	.	.	.
8EE'^^>/J	8E'^>^/J	f	8g#X 8e 8B/	(>16ee\L	[	8E\	Wy-	.	.	.	.	8e/)	.	.	8g#X/)	.	.	.	.	.
.	.	.	.	16gg#\JJ	.	.	.	.	.	.	.	.	.	.	.	.	.	.	.	.
=141	=141	=141	=141	=141	=141	=141	=141	=141	=141	=141	=141	=141	=141	=141	=141	=141	=141	=141	=141	=141
!	!	!	!	!	!LO:DY:rj	!	!	!	!	!	!	!	!	!	!	!	!	!	!	!
8.DD#^</L	8.D#^>\L	.	8f#L 8B'/	8bbL 8ff# 8b\)	f	8.D#\	-pa-	.	4B\	.	.	4f#/	.	.	4b\	-na	.	2ryy	.	.
.	.	.	(<16B/L	(>16b\L	.	.	.	.	.	.	.	.	.	.	.	.	.	.	.	.
16EE'/Jk	16E'\Jk	.	16c#/JJ	16cc#\JJ	.	16E\	-dło	.	.	.	.	.	.	.	.	.	.	.	.	.
8CC#'/L	8C#'/L	.	16d#/LL	16dd#\LL	.	8C#/	im	.	4r	.	.	4r	.	.	4r	.	.	.	.	.
.	.	.	16e/	16ee\	.	.	.	.	.	.	.	.	.	.	.	.	.	.	.	.
8DD#'/J	8D#'/J	.	16f#/	16ff#\	.	8D#\	we-	.	.	.	.	.	.	.	.	.	.	.	.	.
.	.	.	16g#/JJ	16gg#\JJ	.	.	.	.	.	.	.	.	.	.	.	.	.	.	.	.
=142	=142	=142	=142	=142	=142	=142	=142	=142	=142	=142	=142	=142	=142	=142	=142	=142	=142	=142	=142	=142
8BBB/	8BB/	.	8a/L)	8aa'\L)	.	8BB/	-se-	.	2r	.	.	2r	.	.	2r	.	.	2ryy	.	.
4BB^^>/	4B^^>\	.	(<16d#/L	(>16dd#\L	.	4B^^>\	-le	.	.	.	.	.	.	.	.	.	.	.	.	.
.	.	.	16e/JJ	16ee\JJ	.	.	.	.	.	.	.	.	.	.	.	.	.	.	.	.
.	.	.	16f#/LL	16ff#\LL	.	.	.	.	.	.	.	.	.	.	.	.	.	.	.	.
.	.	.	16g#/	16gg#\	.	.	.	.	.	.	.	.	.	.	.	.	.	.	.	.
8AA/	8A\	.	16a/	16aa\	.	8A\	Nim	.	.	.	.	.	.	.	.	.	.	.	.	.
.	.	.	16cc#/JJ)	16ccc#\JJ)	.	.	.	.	.	.	.	.	.	.	.	.	.	.	.	.
=143	=143	=143	=143	=143	=143	=143	=143	=143	=143	=143	=143	=143	=143	=143	=143	=143	=143	=143	=143	=143
!	!	!	!	!	!	!	!	!	!	!	!LO:DY:b:rj	!	!	!LO:DY:a:rj	!	!	!LO:DY:a:rj	!	!	!
8.GG#^>/L	8.BL 8.G#^>\	.	8bL 8e/	8bbL 8ee\	.	8.G#\	jesz-	.	8.B\	Da-	f	8e/	Da-	f	8b\	Da-	f	2ryy	.	.
.	.	.	8b/J	8bb\J	.	.	.	.	.	.	.	8e/	-naż	.	8b\	-naż	.	.	.	.
16AA'/Jk	16c#Jk 16A'\	.	.	.	.	16A\	-cze	.	16c#\	-naż	.	.	.	.	.	.	.	.	.	.
.	.	.	(<8qdd#/	(<8qddd#/	.	.	.	.	.	.	.	.	.	.	(<8qdd#/	.	.	.	.	.
8FF#'/L	8d#L 8A 8F#'\	.	(>8.cc#\L)	(>8.ccc#\L)	.	8F#\	mi-	.	8A/	mo-	.	8d#/	mo-	.	8.cc#\)	mo-	.	.	.	.
8GG#'/J	8eJ 8B 8G#'\	.	.	.	.	8G#\	-nął	.	8B\	-ja,	.	8e/	-ja,	.	.	.	.	.	.	.
.	.	.	16b\Jk)	16bb\Jk)	.	.	.	.	.	.	.	.	.	.	16b\	-ja,	.	.	.	.
=144	=144	=144	=144	=144	=144	=144	=144	=144	=144	=144	=144	=144	=144	=144	=144	=144	=144	=144	=144	=144
4EE/	8r	.	8ee 8g#/	8eee 8gg#\	.	4E\	rok.	.	8B\	da-	.	8g#/	da-	.	8ee\	da-	.	2ryy	.	.
.	4e 4B 4G#\	.	4b 4g#^^>/	4bb 4gg#^^>\	.	.	.	.	4B\	-na,	.	4g#/	-na,	.	4b\	-na,	.	.	.	.
8D#L 8DD#'/	.	.	.	.	.	8D#\	Da-	.	.	.	.	.	.	.	.	.	.	.	.	.
8C#J 8CC#'/	8r	.	8r	8r	.	8C#/	-na	.	8r	.	.	8r	.	.	8r	.	.	.	.	.
=145	=145	=145	=145	=145	=145	=145	=145	=145	=145	=145	=145	=145	=145	=145	=145	=145	=145	=145	=145	=145
4BB 4BBB/	(>16B\LL	.	(>8f#L 8d#/	(>8ff#L 8dd#\	.	8BB/	.	.	8B\	.	.	8d#/	.	.	8f#/	Żon-	.	2ryy	.	.
.	16c#\	.	.	.	.	.	.	.	.	.	.	.	.	.	.	.	.	.	.	.
.	16B\	.	8bJ 8g#/	8bbJ 8gg#\	.	8BB/	.	.	8B\	.	.	8g#/	.	.	8b\	-ko	.	.	.	.
.	16d#\JJ	.	.	.	.	.	.	.	.	.	.	.	.	.	.	.	.	.	.	.
4D# 4DD#/	16B\LL	.	8.aL 8.f#/	8.aaL 8.ff#\	.	8.D#\	.	.	8.B\	.	.	8.f#/	.	.	8.a/	u-	.	.	.	.
.	16c#\J	.	.	.	.	.	.	.	.	.	.	.	.	.	.	.	.	.	.	.
.	8B\J)	.	.	.	.	.	.	.	.	.	.	.	.	.	.	.	.	.	.	.
.	.	.	16cc#Jk 16a/)	16ccc#Jk 16aa\)	.	16D#\	.	.	16B\	.	.	16a/	.	.	16cc#\	-ko-	.	.	.	.
!!LO:LB:g=original
=146	=146	=146	=146	=146	=146	=146	=146	=146	=146	=146	=146	=146	=146	=146	=146	=146	=146	=146	=146	=146
4E 4EE/	16r	.	8cc# 8a/	8ccc# 8aa\	.	8E\	.	.	8B\	.	.	8a/	.	.	8cc#\	-cha-	.	2ryy	.	.
.	(>16B\LL	>	.	.	.	.	.	.	.	.	.	.	.	.	.	.	.	.	.	.
.	16c#\	.	4b 4g#^^>/	4bb 4gg#^^>\	.	4E\	.	.	4B\	.	.	4g#/	.	.	4b\	-na.	.	.	.	.
.	16B\JJ	.	.	.	.	.	.	.	.	.	.	.	.	.	.	.	.	.	.	.
4r	16e\LL	.	.	.	.	.	.	.	.	.	.	.	.	.	.	.	.	.	.	.
.	16d#\	.	.	.	.	.	.	.	.	.	.	.	.	.	.	.	.	.	.	.
.	16c#\	.	8r	8r	.	8r	.	.	8r	.	.	8r	.	.	8r	.	.	.	.	.
.	16B\JJ)	]]	.	.	.	.	.	.	.	.	.	.	.	.	.	.	.	.	.	.
=147	=147	=147	=147	=147	=147	=147	=147	=147	=147	=147	=147	=147	=147	=147	=147	=147	=147	=147	=147	=147
!	!	!	!	!	!LO:DY:rj	!	!	!LO:DY:a:rj	!	!	!LO:DY:b:rj	!	!	!LO:DY:b:rj	!	!	!LO:DY:a:rj	!	!	!
8.AA/L	8.c#L 8.A\	p	8.aL 8.e/	8.aaL 8.ee 8.cc#\	p	8.G#\	.	p	8.c#\	.	p	8.e/	.	p	8.a/	Bo-	p	2ryy	.	.
16EJk 16EE'/	16B\Jk	.	16g#Jk 16e'/	16gg#Jk 16ee'\	.	16E\	.	.	16B\	.	.	16e/	.	.	16g#/	-że,	.	.	.	.
8AA'/L	8c#L 8A'\	.	8aL 8e'/	8aaL 8ee'\	.	8A\	.	.	8c#\	.	.	8e/	.	.	8a/	z to-	.	.	.	.
8EJ 8EE'/	8e'\J	.	8bJ 8g#'/	8bbJ 8gg#'\	.	8E\	.	.	8e\	.	.	8g#/	.	.	8b\	-bą	.	.	.	.
=148	=148	=148	=148	=148	=148	=148	=148	=148	=148	=148	=148	=148	=148	=148	=148	=148	=148	=148	=148	=148
2AA/	(>16e\LL	.	2cc# 2a/	2ccc# 2aa\	.	2A\	.	.	2e\	.	.	2a/	.	.	2cc#\	daj	.	2ryy	.	.
.	16E\	.	.	.	.	.	.	.	.	.	.	.	.	.	.	.	.	.	.	.
.	16F#\	.	.	.	.	.	.	.	.	.	.	.	.	.	.	.	.	.	.	.
.	16G#\JJ	.	.	.	.	.	.	.	.	.	.	.	.	.	.	.	.	.	.	.
.	16A\LL	.	.	.	.	.	.	.	.	.	.	.	.	.	.	.	.	.	.	.
.	16B\	.	.	.	.	.	.	.	.	.	.	.	.	.	.	.	.	.	.	.
.	16c#\	.	.	.	.	.	.	.	.	.	.	.	.	.	.	.	.	.	.	.
.	16A\JJ)	.	.	.	.	.	.	.	.	.	.	.	.	.	.	.	.	.	.	.
=149	=149	=149	=149	=149	=149	=149	=149	=149	=149	=149	=149	=149	=149	=149	=149	=149	=149	=149	=149	=149
!	!	!	!	!	!	!	!	!	!	!	!	!	!	!	!	!	!LO:DY:a	!	!	!
8.F#L 8.FF#/	8.e\L	<	8.cc#L 8.a/	8.ccc#L 8.aa\	<	8.F#\	.	.	8.e\	.	.	8.a/	.	.	8.cc#\	Prze-	<	2ryy	.	.
!	!	!	!	!	!	!	!	!LO:DY:a	!	!	!	!	!	!	!	!	!	!	!	!
!	!	!	!	!	!	!	!	!LO:HP:a	!	!	!LO:HP:b	!	!	!LO:HP:b	!	!	!	!	!	!
16F#Jk 16FF#'/	16d#'\Jk	.	16bJk 16a'/	16bbJk 16gg#'\	.	16F#\	.	<	16d#\	.	<	16a/	.	<	16b\	-żyć	.	.	.	.
8F#L 8FF#'/	8e'\L	.	8cc#L 8a'/	8ccc#L 8aa'\	.	8F#\	.	.	8e\	.	.	8a/	.	.	8cc#\	la-	.	.	.	.
8F#J 8FF#'/	8c#'\J	.	8dd#J 8a'/	8ddd#J 8aa'\	.	8F#\	.	.	8c#\	.	.	8a/	.	.	8dd#\	-tek	.	.	.	.
=150	=150	=150	=150	=150	=150	=150	=150	=150	=150	=150	=150	=150	=150	=150	=150	=150	=150	=150	=150	=150
2C# 2CC#/	(>16c#\LL	.	2ee 2g#/	2eee 2gg#\	.	2C#/	.	.	2c#\	.	.	2g#/	.	.	2ee\	sto!	.	2ryy	.	.
.	16G#\	.	.	.	.	.	.	.	.	.	.	.	.	.	.	.	.	.	.	.
.	16A#X\	.	.	.	.	.	.	.	.	.	.	.	.	.	.	.	.	.	.	.
.	16B#X\JJ	.	.	.	.	.	.	.	.	.	.	.	.	.	.	.	.	.	.	.
.	16c#\LL	.	.	.	.	.	.	.	.	.	.	.	.	.	.	.	.	.	.	.
.	16d#\	.	.	.	.	.	.	.	.	.	.	.	.	.	.	.	.	.	.	.
.	16e\	.	.	.	.	.	.	.	.	.	.	.	.	.	.	.	.	.	.	.
.	16d#\JJ)	.	.	.	.	.	.	.	.	.	.	.	.	.	.	.	.	.	.	.
=151	=151	=151	=151	=151	=151	=151	=151	=151	=151	=151	=151	=151	=151	=151	=151	=151	=151	=151	=151	=151
*	*	*	*	*8va	*	*	*	*	*	*	*	*	*	*	*	*	*	*	*	*
!	!	!	!	!	!LO:DY:rj	!	!	!LO:DY:a:rj	!	!	!LO:DY:b:rj	!	!	!LO:DY:b:rj	!	!	!LO:DY:a:rj	!	!	!
8.F#L 8.FF#^^>/	8.c#^^>\L	f	8.eeL 8.a#X^^>\	8.eeeL 8.aa#X^^>\	f	8.F#\	.	f	8.c#\	.	f	8.a#X/	.	f	8.ee\	Bo-	f	2ryy	.	.
16F#Jk 16FF#'/	16c#'\Jk	.	16dd#Jk 16a#'\	16ddd#Jk 16aa#'\	.	16F#\	.	.	16c#\	.	.	16a#/	.	.	16dd#\	-że,	.	.	.	.
8F#L 8FF#'/	8c#'\L	.	8eeL 8a#'\	8eeeL 8aa#'\	.	8F#\	.	.	8c#\	.	.	8a#/	.	.	8ee\	z to-	.	.	.	.
8AA#X'/J	8eJ 8A#X'\	.	8ff#J 8cc#'\	8fff#J 8ccc#'\	.	8A#X\	.	.	8e\	.	.	8cc#\	.	.	8ff#\	-bą	.	.	.	.
!!LO:PB:g=original
=152	=152	=152	=152	=152	=152	=152	=152	=152	=152	=152	=152	=152	=152	=152	=152	=152	=152	=152	=152	=152
2BB/	2g# 2B\	.	2gg# 2b\	(>16ggg#\LL	.	(>2B\	.	.	(>2e\	.	.	(>2b\	.	.	(>2gg#\	daj	.	2ryy	.	.
.	.	.	.	16bb\	.	.	.	.	.	.	.	.	.	.	.	.	.	.	.	.
.	.	.	.	16ccc#\	.	.	.	.	.	.	.	.	.	.	.	.	.	.	.	.
.	.	.	.	16ddd#\JJ	.	.	.	.	.	.	.	.	.	.	.	.	.	.	.	.
.	.	.	.	16eee\LL	.	.	.	.	.	.	.	.	.	.	.	.	.	.	.	.
.	.	.	.	16ddd#\	.	.	.	.	.	.	.	.	.	.	.	.	.	.	.	.
.	.	.	.	16eee\	.	.	.	.	.	.	.	.	.	.	.	.	.	.	.	.
.	.	.	.	16ggg#\JJ)	.	.	.	.	.	.	.	.	.	.	.	.	.	.	.	.
=153	=153	=153	=153	=153	=153	=153	=153	=153	=153	=153	=153	=153	=153	=153	=153	=153	=153	=153	=153	=153
(>4B-X 4BB-X\	(>16e\LL	.	(>4ggn 4ccn\	(>16gggn\LL	.	4B-X\	.	.	4e\	.	.	4ccn\	.	.	4ggn\	.	.	2ryy	.	.
.	16gn\	.	.	16cccn\	.	.	.	.	.	.	.	.	.	.	.	.	.	.	.	.
.	16fn\	.	.	16dddn\	.	.	.	.	.	.	.	.	.	.	.	.	.	.	.	.
.	16e\JJ	.	.	16eee\JJ	.	.	.	.	.	.	.	.	.	.	.	.	.	.	.	.
4A 4AA/)	4d#X\)	.	4ff# 4b\)	16fff#\LL	.	4A\	.	.	4d#\	.	.	4b\	.	.	4ff#\	.	.	.	.	.
.	.	.	.	16eee\	.	.	.	.	.	.	.	.	.	.	.	.	.	.	.	.
.	.	.	.	16ddd#X\	.	.	.	.	.	.	.	.	.	.	.	.	.	.	.	.
.	.	.	.	16fff#\JJ)	.	.	.	.	.	.	.	.	.	.	.	.	.	.	.	.
=154	=154	=154	=154	=154	=154	=154	=154	=154	=154	=154	=154	=154	=154	=154	=154	=154	=154	=154	=154	=154
(<4A-X 4AA-X/	(>16dn\LL	.	(>4ffn 4b-X\	(16fffn\LL	.	4A-X\	.	.	4dn\	.	.	4b-X\	.	.	4ffn\	.	.	2ryy	.	.
.	16fn\	.	.	16bb-X\	.	.	.	.	.	.	.	.	.	.	.	.	.	.	.	.
.	16e-X\	.	.	16cccn\	.	.	.	.	.	.	.	.	.	.	.	.	.	.	.	.
.	16d\JJ	.	.	16dddn\JJ	.	.	.	.	.	.	.	.	.	.	.	.	.	.	.	.
4Gn 4GGn/)	4c#X\)	.	4ee 4a\)	16eee\LL	.	4Gn\	.	.	4c#\	.	.	4a/	.	.	4ee\	.	.	.	.	.
.	.	.	.	16ddd\	.	.	.	.	.	.	.	.	.	.	.	.	.	.	.	.
.	.	.	.	16ccc#X\	.	.	.	.	.	.	.	.	.	.	.	.	.	.	.	.
.	.	.	.	16eee\JJ)	.	.	.	.	.	.	.	.	.	.	.	.	.	.	.	.
=155	=155	=155	=155	=155	=155	=155	=155	=155	=155	=155	=155	=155	=155	=155	=155	=155	=155	=155	=155	=155
(<4G-X 4GG-X/	(>16cn\LL	.	(>4ee-X 4a-X\	(>16eee-X\LL	.	4G-X\	.	.	4cn\	.	.	4a-X/	.	.	4ee-X\	.	.	2ryy	.	.
.	16e-X\	.	.	16aa-X\	.	.	.	.	.	.	.	.	.	.	.	.	.	.	.	.
.	16d-X\	.	.	16bb-X\	.	.	.	.	.	.	.	.	.	.	.	.	.	.	.	.
.	16c\JJ	.	.	16cccn\JJ	.	.	.	.	.	.	.	.	.	.	.	.	.	.	.	.
4Fn 4FFn/)	4Bn\)	.	4ddn 4gn/)	16dddn\LL	.	4Fn\)	.	.	4Bn\)	.	.	4gn/)	.	.	4ddn\)	.	.	.	.	.
.	.	.	.	16ccc\	.	.	.	.	.	.	.	.	.	.	.	.	.	.	.	.
.	.	.	.	16bbn\	.	.	.	.	.	.	.	.	.	.	.	.	.	.	.	.
.	.	.	.	16ddd\JJ)	.	.	.	.	.	.	.	.	.	.	.	.	.	.	.	.
=156	=156	=156	=156	=156	=156	=156	=156	=156	=156	=156	=156	=156	=156	=156	=156	=156	=156	=156	=156	=156
4.En 4.EEn/	4A#X^^>\	.	8.cc#XL 8.f#X^^>/	8.ccc#X^^>\L	.	8.E\	.	.	8.A#X/	.	.	8.f#/	.	.	8.cc#\	Prze-	.	2ryy	.	.
.	.	.	16b#X'/Jk	16bb#X'\Jk	.	16E\	.	.	16A#/	.	.	16f#/	.	.	16b#X\	-żyć	.	.	.	.
.	8A#L 8F#X'\	.	8cc#'\L	8ccc#'\L	.	8E\	.	.	8A#/	.	.	8f#/	.	.	8cc#\	la-	.	.	.	.
8C# 8CC#/	8enJ 8A# 8F#\	.	8een\J	8eeen'\J	.	8C#/	.	.	8A#/	.	.	8f#/	.	.	8ee\	-tek	.	.	.	.
=157	=157	=157	=157	=157	=157	=157	=157	=157	=157	=157	=157	=157	=157	=157	=157	=157	=157	=157	=157	=157
4.BB 4.BBB/	4.d# 4.An 4.F#^^>\	.	8.dd#^^>\L	8.ddd#^^>\L	.	8.BB/	.	.	8.An/	.	.	8.f#/	.	.	8.dd#\	prze-	.	2ryy	.	.
.	.	.	16cc#'\Jk	16ccc#'\Jk	.	16BB/	.	.	16A/	.	.	16f#/	.	.	16cc#\	-żyć	.	.	.	.
.	.	.	8dd#'\L	8ddd#'\L	.	8BB/	.	.	8B\	.	.	8f#/	.	.	8dd#\	la-	.	.	.	.
8BB 8BBB/	8d# 8B 8A 8F#\	.	8ff#'\J	8fff#'\J	.	8BB/	.	.	8B\	.	.	8a/	.	.	8ff#\	-tek	.	.	.	.
!!LO:LB:g=original
=158	=158	=158	=158	=158	=158	=158	=158	=158	=158	=158	=158	=158	=158	=158	=158	=158	=158	=158	=158	=158
*	*	*	*	*	*	*2\right	*	*	*	*	*	*	*	*	*	*	*	*	*	*
4BB 4EE^^>/	8eL 8G#^^>\	.	4ee\	4eee\	.	[>2E\	.	.	[>2B\	sto	.	4g#/	.	.	4ee\	sto!	.	2ryy	.	.
!	!	!LO:DY:t=sempre f	!	!	!	!	!	!	!	!	!	!	!	!	!	!	!	!	!	!
.	(>16BL 16G#\	f	.	.	.	.	.	.	.	.	.	.	.	.	.	.	.	.	.	.
.	16c#\JJ)	.	.	.	.	.	.	.	.	.	.	.	.	.	.	.	.	.	.	.
!	!	!	!	!	!LO:DY:t=sempre f	!	!	!	!	!	!	!	!	!	!	!	!	!	!	!
4BB 4EE^^>/	8BL 8G#'\	.	4r	4r	f	.	.	.	.	.	.	4r	.	.	4r	.	.	.	.	.
.	8eJ 8G#'\	.	.	.	.	.	.	.	.	.	.	.	.	.	.	.	.	.	.	.
=159	=159	=159	=159	=159	=159	=159	=159	=159	=159	=159	=159	=159	=159	=159	=159	=159	=159	=159	=159	=159
*	*	*	*	*	*	*2\left	*	*	*	*	*	*	*	*	*	*	*	*	*	*
!	!	!	!	!	!	!	!	!	!	!	!	!	!	!	!	!	!LO:DY:a:rj	!	!	!
4BB 4EE^^>/	8BL 8F#'\	.	8dd#\L	8ddd#\L	.	2E\_>	.	.	2B\_>	.	.	2r	.	.	8dd#\	Da-	f	2ryy	.	.
.	(>16BL 16F#\	.	8dd#\J	8ddd#\J	.	.	.	.	.	.	.	.	.	.	8dd#\	-naż	.	.	.	.
.	16c#\JJ)	.	.	.	.	.	.	.	.	.	.	.	.	.	.	.	.	.	.	.
.	.	.	(<8qff#/	(<8qfff#/	.	.	.	.	.	.	.	.	.	.	(<8qff#/	.	.	.	.	.
4BB 4EE^^>/	8BL 8F#'\	.	8.ee^^>\L)	8.eee^^>\L)	.	.	.	.	.	.	.	.	.	.	8.ee\)	mo-	.	.	.	.
.	8d#J 8B 8F#'\	.	.	.	.	.	.	.	.	.	.	.	.	.	.	.	.	.	.	.
.	.	.	16dd#\Jk	16ddd#\Jk	.	.	.	.	.	.	.	.	.	.	16dd#\	-ja	.	.	.	.
=160	=160	=160	=160	=160	=160	=160	=160	=160	=160	=160	=160	=160	=160	=160	=160	=160	=160	=160	=160	=160
!	!	!	!	!	!	!	!	!	!	!	!	!	!	!LO:DY:b:rj	!	!	!	!	!	!
4BB 4EE^^>/	8c#L 8G# 8E'\	.	8cc#L 8g#/	8ccc#\	.	2E\_>	.	.	2B\_>	.	.	8g#/	Da-	f	8cc#\	da-	.	2ryy	.	.
.	(>16c#\L	.	8g#/J	4eee 4ee^^>/	.	.	.	.	.	.	.	8g#/	-naż	.	4ee\	-na!	.	.	.	.
.	16d#\JJ)	.	.	.	.	.	.	.	.	.	.	.	.	.	.	.	.	.	.	.
.	.	.	(<8qb/	.	.	.	.	.	.	.	.	(<8qb/	.	.	.	.	.	.	.	.
4BB 4EE^^>/	8c#'\L	.	8.a^^>/L)	.	.	.	.	.	.	.	.	8.a/)	mo-	.	.	.	.	.	.	.
*	*	*	*	*X8va	*	*	*	*	*	*	*	*	*	*	*	*	*	*	*	*
.	8eJ 8G# 8E'\	.	.	8r	.	.	.	.	.	.	.	.	.	.	8r	.	.	.	.	.
.	.	.	16g#/Jk	.	.	.	.	.	.	.	.	16g#/	-ja,	.	.	.	.	.	.	.
=161	=161	=161	=161	=161	=161	=161	=161	=161	=161	=161	=161	=161	=161	=161	=161	=161	=161	=161	=161	=161
4BB 4EE^^>/	8d#L 8A 8F#'\	.	8f#/L	8bbL 8b\	.	2E\_>	.	.	4B\]	.	.	8f#/	da-	.	8b\	Da-	.	2ryy	.	.
.	(>16d#\L	.	8a/J	8bbJ 8b\	.	.	.	.	.	.	.	4a/	-na,	.	8b\	-naż	.	.	.	.
.	16c#\JJ)	.	.	.	.	.	.	.	.	.	.	.	.	.	.	.	.	.	.	.
.	.	.	(<8qdd#/	(<8qddd#/	.	.	.	.	.	.	.	.	.	.	(<8qdd#/	.	.	.	.	.
4BB 4EE^^>/	8d#L 8A 8F#'\	.	8.cc#^>\L)	8.ccc#^>\L)	.	.	.	.	4r	.	.	.	.	.	8.cc#\)	mo-	.	.	.	.
!	!	!	!	!	!	!	!	!	!	!	!	!LO:N:vis=4	!	!	!	!	!	!	!	!
.	8d#J 8A 8F#'\	.	.	.	.	.	.	.	.	.	.	8r	.	.	.	.	.	.	.	.
.	.	.	16b\Jk	16bb\Jk	.	.	.	.	.	.	.	.	.	.	16b\	-ja	.	.	.	.
=162	=162	=162	=162	=162	=162	=162	=162	=162	=162	=162	=162	=162	=162	=162	=162	=162	=162	=162	=162	=162
!	!	!	!	!	!	!	!	!	!	!	!LO:DY:a:rj	!	!	!	!	!	!	!	!	!
4BB 4EE^^>/	8B\L	.	8g#/L	8eee 8ee\	.	4.E\]	.	.	8B\	Da-	f	8g#/	Da-	.	8ee\	da-	.	2ryy	.	.
.	8B\J	.	8g#/J	4bb^^>\	.	.	.	.	8B\	-naż	.	8g#/	-naż	.	4b\	-na!	.	.	.	.
.	(<8qd#/	.	(<8qb/	.	.	.	.	.	(<8qd#/	.	.	(<8qb/	.	.	.	.	.	.	.	.
8BBL 8EE^^>/	8.c#^>\L)	.	8.a^</L)	.	.	.	.	.	8.c#\)	mo-	.	8.a/)	mo-	.	.	.	.	.	.	.
!	!	!	!	!	!	!	!	!LO:DY:a:rj	!	!	!	!	!	!	!	!	!	!	!	!
8EJ 8EE^^>/	.	.	.	8r	.	8E\	A	f	.	.	.	.	.	.	8r	.	.	.	.	.
.	16B'\Jk	.	16g#/Jk	.	.	.	.	.	16B\	-ja	.	16g#/	-ja	.	.	.	.	.	.	.
=163	=163	=163	=163	=163	=163	=163	=163	=163	=163	=163	=163	=163	=163	=163	=163	=163	=163	=163	=163	=163
8.D#L 8.DD#^</	2B 2F#^^>\	.	8f#/L	8bbL 8b\	.	8.D#\	w karcz-	.	(>2B\	da-	.	(<2f#/	da-	.	8b\	Da-	.	2ryy	.	.
.	.	.	8b/J	8bb\J	.	.	.	.	.	.	.	.	.	.	8b\	-naż	.	.	.	.
16EJk 16EE^</	.	.	.	.	.	16E\	-mie	.	.	.	.	.	.	.	.	.	.	.	.	.
.	.	.	(<8qdd#/	(<8qddd#/	.	.	.	.	.	.	.	.	.	.	(<8qdd#/	.	.	.	.	.
8C#L 8CC#^</	.	.	8.cc#^>\L)	8.ccc#^>\L)	.	8C#/	jak	.	.	.	.	.	.	.	8.cc#\)	mo-	.	.	.	.
8D#J 8DD#^</	.	.	.	.	.	8D#\	w koś-	.	.	.	.	.	.	.	.	.	.	.	.	.
.	.	.	16b\Jk	16bb\Jk	.	.	.	.	.	.	.	.	.	.	16b\	-ja	.	.	.	.
!!LO:PB:g=original
=164	=164	=164	=164	=164	=164	=164	=164	=164	=164	=164	=164	=164	=164	=164	=164	=164	=164	=164	=164	=164
*	*	*	*	*8va	*	*	*	*	*	*	*	*	*	*	*	*	*	*	*	*
!	!	!	!	!	!	!	!	!	!	!	!	!LO:TX:a:t=P:problem:w źródle łuk kończy się na górze - po stronie główki nuty	!	!	!	!	!	!	!	!
8BB 8BBB'/	8d# 8F#'\	.	2b 2f#/	8fff# 8ff#\	.	8BB/	-cie-	.	4d#\)	.	.	4b\)	.	.	8ff#\	da-	.	2ryy	.	.
4BB^^>/	4B^^>\	.	.	4.ddd# 4.dd#^^>/	.	4B^^>\	-le	.	.	.	.	.	.	.	4.dd#\	-na,	.	.	.	.
.	.	.	.	.	.	.	.	.	4B\	-na,	.	4f#/	-na	.	.	.	.	.	.	.
8AA^^>/	8A^^>\	.	.	.	.	8A\	Był	.	.	.	.	.	.	.	.	.	.	.	.	.
=165	=165	=165	=165	=165	=165	=165	=165	=165	=165	=165	=165	=165	=165	=165	=165	=165	=165	=165	=165	=165
8.GG#^>/L	8.G#^>\L	.	8bL 8e^^>\	8eeeL 8ee^^>\	.	8.G#\	ta-	.	4.B\	da-	.	4.e/	da-	.	4.ee\	da-	.	2ryy	.	.
.	.	.	(>16b\L	(>16bb\L	.	.	.	.	.	.	.	.	.	.	.	.	.	.	.	.
16AA'/Jk	16A'\Jk	.	16cc#\JJ	16ccc#\JJ	.	16A\	-ki	.	.	.	.	.	.	.	.	.	.	.	.	.
8GG#'/L	8G#'\L	.	16b\LL	16bb\LL	.	8G#\	lu-	.	.	.	.	.	.	.	.	.	.	.	.	.
.	.	.	16cc#\	16ccc#\	.	.	.	.	.	.	.	.	.	.	.	.	.	.	.	.
8BB'/J	8B'\J	.	16dd#\	16ddd#\	.	8B\	-du	.	8e\	-na,	.	8g#/	-na	.	8b\	-na	.	.	.	.
.	.	.	16ee\JJ)	16eee\JJ)	.	.	.	.	.	.	.	.	.	.	.	.	.	.	.	.
=166	=166	=166	=166	=166	=166	=166	=166	=166	=166	=166	=166	=166	=166	=166	=166	=166	=166	=166	=166	=166
8.FF#^>/L	8.F#^>\L	.	8dd#L 8a^^>\	8ddd#L 8aa^^>\	.	8.F#\	ta-	.	(>4.f#\	da-	.	2a/	da-	.	(>4.dd#\	da-	.	2ryy	.	.
.	.	.	(>16dd#\L	(>16ddd#\L	.	.	.	.	.	.	.	.	.	.	.	.	.	.	.	.
16GG#'/Jk	16G#'\Jk	.	16ee\JJ	16eee\JJ	.	16G#\	-ki	.	.	.	.	.	.	.	.	.	.	.	.	.
8FF#'/L	8F#'\L	.	16dd#\LL	16ddd#\LL	.	8F#\	lu-	.	.	.	.	.	.	.	.	.	.	.	.	.
.	.	.	16ee\	16eee\	.	.	.	.	.	.	.	.	.	.	.	.	.	.	.	.
8BB'/J	8B'\J	.	16ff#\	16fff#\	.	8B\	-du	.	8d#\)	.	.	.	.	.	8ff#\)	.	.	.	.	.
.	.	.	16dd#\JJ)	16ddd#\JJ)	.	.	.	.	.	.	.	.	.	.	.	.	.	.	.	.
=167	=167	=167	=167	=167	=167	=167	=167	=167	=167	=167	=167	=167	=167	=167	=167	=167	=167	=167	=167	=167
8EE^^>/	8E^^>\	.	8ee^^>\	8eee^^>\	.	8E\	tłok	.	8e\	-na,	.	8g#/	-na.	.	8ee\	-na!	.	2ryy	.	.
!	!	!	!	!	!	!	!	!	!	!	!	!	!	!LO:DY:a	!	!	!	!	!	!
8r	8r	.	8r	8r	.	8r	.	.	8r	.	.	8r	.	ff	8r	.	.	.	.	.
!	!	!LO:DY:rj	!	!	!	!	!	!LO:DY:b:rj	!	!	!LO:DY:b:rj	!	!	!	!	!	!LO:DY:a:rj	!	!	!
4C# 4CC#^^>/	4f# 4e 4A#X 4F#^^>\	ff	4ff# 4ee 4a#X^^>\	4fff# 4eee 4aa#X^^>\	ff	(>4C#/	da-	ff	8e\	da-	ff	(<4f#/	da-	.	8ee\	da-	ff	.	.	.
.	.	.	.	.	.	.	.	.	8e\	-na,	.	.	.	.	8ee\	-na,	.	.	.	.
=168	=168	=168	=168	=168	=168	=168	=168	=168	=168	=168	=168	=168	=168	=168	=168	=168	=168	=168	=168	=168
4E 4EE^^>/	4g# 4e 4B 4G#^^>\	.	4gg# 4ee 4b^^>\	4ggg# 4eee 4bb^^>\	.	4E\)	.	.	8e\	da-	.	4g#/)	.	.	8ee\	da-	.	2ryy	.	.
.	.	.	.	.	.	.	.	.	8e\	-na,	.	.	.	.	8ee\	-na,	.	.	.	.
4F# 4FF#^^>/	4f# 4e 4A#X^^>\	.	4ff# 4ee 4a#X^^>\	4fff# 4eee 4aa#X^^>\	.	4F#\	-na,	.	8e\	da-	.	4a#X/	-na,	.	8ee\	da-	.	.	.	.
.	.	.	.	.	.	.	.	.	8e\	-na,	.	.	.	.	8ee\	-na,	.	.	.	.
=169	=169	=169	=169	=169	=169	=169	=169	=169	=169	=169	=169	=169	=169	=169	=169	=169	=169	=169	=169	=169
4E 4EE^^>'/	4g# 4e 4B 4G#\	.	4gg# 4ee 4b^^>\	4ggg# 4eee 4bb^^>\	.	4E\	da-	.	8e\	da-	.	4g#/	da-	.	8ee\	da-	.	2ryy	.	.
.	.	.	.	.	.	.	.	.	8e\	-na,	.	.	.	.	8ee\	-na,	.	.	.	.
4C# 4CC#^^>/	4f# 4e 4A#X 4F#\	.	4ff# 4ee 4a#X^^>\	4fff# 4eee 4aa#X^^>\	.	4C#/	-na	.	8e\	da-	.	4f#/	-na	.	8ee\	da-	.	.	.	.
.	.	.	.	.	.	.	.	.	8e\	-na,	.	.	.	.	8ee\	-na	.	.	.	.
!!LO:LB:g=original
=170	=170	=170	=170	=170	=170	=170	=170	=170	=170	=170	=170	=170	=170	=170	=170	=170	=170	=170	=170	=170
4E 4EE^^>/	4g# 4e 4B 4G#^^>\	.	4gg# 4ee 4b^^>\	4ggg# 4eee 4bb^^>\	.	4E\	da-	.	8e\	da-	.	4g#/	da-	.	8ee\	da-	.	2ryy	.	.
.	.	.	.	.	.	.	.	.	8e\	-na	.	.	.	.	8ee\	-na,	.	.	.	.
4F# 4FF#^^>/	4f# 4e 4A#X^^>\	.	4ff# 4ee 4a#X^^>\	4fff# 4eee 4aa#X^^>\	.	4F#\	-na	.	8e\	da-	.	4a#X/	-na	.	8ee\	da-	.	.	.	.
.	.	.	.	.	.	.	.	.	8e\	-na	.	.	.	.	8ee\	-na,	.	.	.	.
=171	=171	=171	=171	=171	=171	=171	=171	=171	=171	=171	=171	=171	=171	=171	=171	=171	=171	=171	=171	=171
4E 4EE^^>/	4g# 4e 4B 4G#^^>\	.	4gg# 4ee 4b^^>\	4ggg# 4eee 4bb^^>\	.	[>2E\	.	.	[>2e\	.	.	[>2b\	.	.	[>2gg#\	da-	.	2ryy	.	.
4r	4r	.	4r	4r	.	.	.	.	.	.	.	.	.	.	.	.	.	.	.	.
=172	=172	=172	=172	=172	=172	=172	=172	=172	=172	=172	=172	=172	=172	=172	=172	=172	=172	=172	=172	=172
4E 4EE^^>/	4g# 4e 4B 4G#^^>\	.	4gg# 4ee 4b^^>\	4ggg# 4eee 4bb^^>\	.	2E\_>	.	.	2e\_>	.	.	2b\_>	.	.	2gg#\_>	.	.	2ryy	.	.
4E 4EE^^>/	4g# 4e 4B 4G#^^\	.	4gg# 4ee 4b^^>\	4ggg# 4eee 4bb^^>\	.	.	.	.	.	.	.	.	.	.	.	.	.	.	.	.
=173	=173	=173	=173	=173	=173	=173	=173	=173	=173	=173	=173	=173	=173	=173	=173	=173	=173	=173	=173	=173
4E 4EE^^>/	4g# 4e 4B 4G#^^>\	.	4gg# 4ee 4b^^>\	4ggg# 4eee 4bb^^>\	.	2E\_>	.	.	2e\_>	.	.	2b\_>	.	.	2gg#\_>	.	.	2ryy	.	.
4r	4r	.	4r	4r	.	.	.	.	.	.	.	.	.	.	.	.	.	.	.	.
=174	=174	=174	=174	=174	=174	=174	=174	=174	=174	=174	=174	=174	=174	=174	=174	=174	=174	=174	=174	=174
4E 4EE^^>/	4g# 4e 4B 4G#^^>\	.	4gg# 4ee 4b^^>\	4bbb 4ggg# 4eee 4bb^^>\	.	2E\]	.	.	2e\]	.	.	2b\]	.	.	2gg#\]	.	.	2ryy	.	.
4E 4EE^^>/	4g# 4e 4B 4G#^^>\	.	4gg# 4ee 4b^^>\	4bbb 4ggg# 4eee 4bb^^>\	.	.	.	.	.	.	.	.	.	.	.	.	.	.	.	.
=175	=175	=175	=175	=175	=175	=175	=175	=175	=175	=175	=175	=175	=175	=175	=175	=175	=175	=175	=175	=175
4E 4EE^^>/	4g# 4e 4B 4G#^^>\	.	4gg# 4ee 4b^^>\	4eeee 4bbb 4ggg# 4eee^^>\	.	4E\	.	.	4B\	.	.	4g#/	.	.	4ee\	-na!	.	2ryy	.	.
*	*	*	*	*	*	*	*	*	*X8ba	*	*	*	*	*	*	*	*	*	*	*
4r	4r	.	4r	4r	.	4r	.	.	4r	.	.	4r	.	.	4r	.	.	.	.	.
=176	=176	=176	=176	=176	=176	=176	=176	=176	=176	=176	=176	=176	=176	=176	=176	=176	=176	=176	=176	=176
4EE 4EEE/	4e 4B 4G# 4E\	sfz	4gg# 4ee 4b 4g#\	4eeee 4bbb 4ggg# 4eee\	sfz	2r	.	.	2r	.	.	2r	.	.	2r	.	.	2ryy	.	.
4r	4r	.	4r	4r	.	.	.	.	.	.	.	.	.	.	.	.	.	.	.	.
=177	=177	=177	=177	=177	=177	=177	=177	=177	=177	=177	=177	=177	=177	=177	=177	=177	=177	=177	=177	=177
4EE 4EEE/	4e 4B 4G# 4E\	sfz	4gg# 4ee 4b 4g#\	4eeee 4bbb 4ggg# 4eee\	sfz	2r	.	.	2r	.	.	2r	.	.	2r	.	.	2ryy	.	.
4r	4r	.	4r	4r	.	.	.	.	.	.	.	.	.	.	.	.	.	.	.	.
!	!	!	!LO:TX:a:i:t=Fine!	!	!	!	!	!	!	!	!	!	!	!	!	!	!	!	!	!
*	*	*	*	*X8va	*	*	*	*	*	*	*	*	*	*	*	*	*	*	*	*
==	==	==	==	==	==	==	==	==	==	==	==	==	==	==	==	==	==	==	==	==
*-	*-	*-	*-	*-	*-	*-	*-	*-	*-	*-	*-	*-	*-	*-	*-	*-	*-	*-	*-	*-
!!!system-decoration: {s1{(s2,s3,s4,s5)}{(s6,s7)}{(s8,s9)}}
!!!RDF**dynam: < = "cresc", 'fontstyle="italic"
!!!RDF**kern: > = above
!!!RDF**kern: < = below
!!!EED: Antoni Szymański
!!!EST: 2021-05-31
!!!ENC: Marcin Jachim
!!!END: 2021-05-13
